; generated by Slic3r 1.2.9 on 2020-02-12 at 16:10:34

; external perimeters extrusion width = 0.40mm
; perimeters extrusion width = 0.48mm
; infill extrusion width = 0.48mm
; solid infill extrusion width = 0.48mm
; top infill extrusion width = 0.48mm
; support material extrusion width = 0.40mm

M107
M190 S65 ; set bed temperature
M104 S210 ; set temperature
G28 ; home all axes
G1 Z5 F5000 ; lift nozzle

M109 S210 ; wait for temperature to be reached
G21 ; set units to millimeters
G90 ; use absolute coordinates
M82 ; use absolute distances for extrusion
G92 E0
G1 Z0.350 F7800.000
G1 E-2.00000 F2400.00000
G92 E0
G1 X14.334 Y62.332 F7800.000
G1 E2.00000 F2400.00000
G1 X15.472 Y62.131 E2.10500 F1800.000
G1 X16.396 Y62.075 E2.18924
G1 X28.396 Y62.075 E3.28040
G1 X28.974 Y62.101 E3.33295
G1 X29.321 Y62.131 E3.36467 F1800.000
G1 X30.458 Y62.332 E3.46966
G1 X54.811 Y68.989 E5.76530
G1 X56.885 Y69.968 E5.97385
G1 X58.501 Y71.596 E6.18239
G1 X59.466 Y73.676 E6.39093
G1 X59.688 Y75.380 E6.54713
G1 X59.688 Y122.180 E10.80270
G1 X59.291 Y124.439 E11.01124
G1 X58.148 Y126.427 E11.21978
G1 X56.395 Y127.906 E11.42832
G1 X54.243 Y128.699 E11.63687
G1 X53.064 Y128.805 E11.74458
G1 X48.064 Y128.805 E12.19922
G1 X46.067 Y128.497 E12.38287
G1 X26.305 Y122.253 E14.26741
G1 X24.492 Y121.558 E14.44401
G1 X23.600 Y121.129 E14.53399
G1 X22.306 Y120.382 E14.66984
G1 X21.488 Y119.825 E14.75980
G1 X20.320 Y118.894 E14.89562
G1 X19.595 Y118.222 E14.98560
G1 X18.614 Y117.165 E15.11667
G1 X17.961 Y116.354 E15.21139
G1 X17.118 Y115.120 E15.34723
G1 X16.623 Y114.263 E15.43720
G1 X15.974 Y112.918 E15.57303
G1 X15.612 Y111.997 E15.66300
G1 X15.171 Y110.570 E15.79883
G1 X15.042 Y110.092 E15.84385
G1 X8.191 Y80.186 E18.63359
G1 X7.929 Y78.711 E18.76984
G1 X7.845 Y77.971 E18.83761
G1 X7.782 Y76.847 E18.93996
G1 X7.772 Y70.700 E19.49885
G1 X7.797 Y70.123 E19.55140
G1 X7.827 Y69.776 E19.58310
G1 X8.028 Y68.638 E19.68810
G1 X8.118 Y68.301 E19.71989
G1 X8.513 Y67.216 E19.82481
G1 X8.661 Y66.900 E19.85658
G1 X9.238 Y65.900 E19.96151
G1 X9.438 Y65.615 E19.99321
G1 X10.180 Y64.730 E20.09822
G1 X10.427 Y64.483 E20.12996
G1 X11.311 Y63.741 E20.23493
G1 X11.587 Y63.548 E20.26552
G1 X12.597 Y62.964 E20.37163
G1 X12.913 Y62.817 E20.40333
G1 X13.998 Y62.422 E20.50833
G1 X14.277 Y62.347 E20.53457
G1 E18.53457 F2400.00000
G92 E0
G1 X29.654 Y113.358 F7800.000
G1 E2.00000 F2400.00000
G1 X28.789 Y113.283 E2.07891 F1800.000
G1 X27.951 Y113.058 E2.15782
G1 X27.164 Y112.691 E2.23673
G1 X26.453 Y112.194 E2.31564
G1 X25.840 Y111.580 E2.39456
G1 X25.342 Y110.869 E2.47347
G1 X24.975 Y110.082 E2.55238
G1 X24.769 Y109.312 E2.62495
G1 X24.674 Y108.387 E2.70948
G1 X24.751 Y107.515 E2.78904
G1 X24.975 Y106.677 E2.86795
G1 X25.342 Y105.890 E2.94686
G1 X25.840 Y105.180 E3.02577
G1 X26.453 Y104.566 E3.10468
G1 X27.164 Y104.068 E3.18359
G1 X27.951 Y103.701 E3.26250
G1 X28.789 Y103.477 E3.34141
G1 X29.626 Y103.403 E3.41785 F1800.000
G1 X30.515 Y103.476 E3.49894
G1 X31.356 Y103.701 E3.57812
G1 X32.143 Y104.068 E3.65703
G1 X32.854 Y104.566 E3.73594
G1 X33.467 Y105.180 E3.81485
G1 X33.949 Y105.868 E3.89128
G1 X34.331 Y106.674 E3.97238
G1 X34.557 Y107.515 E4.05155
G1 X34.632 Y108.380 E4.13046
G1 X34.557 Y109.244 E4.20938
G1 X34.332 Y110.082 E4.28829
G1 X33.965 Y110.869 E4.36720
G1 X33.467 Y111.580 E4.44611
G1 X32.854 Y112.194 E4.52502
G1 X32.143 Y112.691 E4.60393
G1 X31.356 Y113.058 E4.68284
G1 X30.518 Y113.283 E4.76175
G1 X29.713 Y113.353 E4.83521
G1 X29.654 Y112.731 F7800.000
G1 X28.898 Y112.665 E4.90418 F1800.000
G1 X28.165 Y112.469 E4.97315
G1 X27.478 Y112.148 E5.04212
G1 X26.857 Y111.713 E5.11109
G1 X26.320 Y111.177 E5.18006
G1 X25.885 Y110.555 E5.24902
G1 X25.565 Y109.868 E5.31799
G1 X25.385 Y109.198 E5.38103
G1 X25.302 Y108.382 E5.45562
G1 X25.368 Y107.624 E5.52482
G1 X25.565 Y106.891 E5.59379
G1 X25.885 Y106.204 E5.66276
G1 X26.320 Y105.583 E5.73173
G1 X26.857 Y105.046 E5.80070
G1 X27.478 Y104.611 E5.86967
G1 X28.165 Y104.291 E5.93864
G1 X28.898 Y104.094 E6.00760
G1 X29.628 Y104.031 E6.07426 F1800.000
G1 X30.408 Y104.094 E6.14542
G1 X31.142 Y104.291 E6.21448
G1 X31.829 Y104.611 E6.28345
G1 X32.451 Y105.046 E6.35242
G1 X32.987 Y105.583 E6.42139
G1 X33.407 Y106.183 E6.48804
G1 X33.742 Y106.890 E6.55920
G1 X33.939 Y107.624 E6.62826
G1 X34.005 Y108.380 E6.69723
G1 X33.939 Y109.135 E6.76620
G1 X33.742 Y109.868 E6.83517
G1 X33.422 Y110.555 E6.90414
G1 X32.987 Y111.177 E6.97310
G1 X32.451 Y111.713 E7.04207
G1 X31.829 Y112.148 E7.11104
G1 X31.142 Y112.469 E7.18001
G1 X30.409 Y112.665 E7.24898
G1 X29.713 Y112.726 E7.31249
G1 X29.444 Y113.071 F7800.000
G1 E5.31249 F2400.00000
G92 E0
G1 X36.260 Y109.355 F7800.000
G1 E2.00000 F2400.00000
G1 X36.079 Y107.281 E2.18930 F1800.000
G1 X35.831 Y106.288 E2.28237
G1 X35.409 Y105.311 E2.37909
G1 X34.835 Y104.419 E2.47556
G1 X34.089 Y103.603 E2.57612
G1 X33.288 Y102.965 E2.66919
G1 X32.360 Y102.446 E2.76591
G1 X31.359 Y102.085 E2.86262
G1 X30.313 Y101.891 E2.95934
G1 X29.250 Y101.870 E3.05606
G1 X27.229 Y102.162 E3.24172
G1 X26.684 Y99.782 E3.46379
G1 X26.643 Y99.502 E3.48949
G1 X26.650 Y99.180 E3.51883
G1 X26.708 Y98.862 E3.54816
G1 X26.818 Y98.559 E3.57750
G1 X26.975 Y98.277 E3.60683
G1 X27.176 Y98.025 E3.63617
G1 X27.416 Y97.809 E3.66551
G1 X27.687 Y97.634 E3.69484
G1 X27.983 Y97.506 E3.72417
G1 X28.296 Y97.428 E3.75351
G1 X28.578 Y97.405 E3.77921
G1 X42.106 Y97.405 E5.00932
G1 X42.407 Y97.431 E5.03680
G1 X42.740 Y97.520 E5.06816
G1 X43.053 Y97.666 E5.09952
G1 X43.335 Y97.864 E5.13089
G1 X43.579 Y98.108 E5.16225
G1 X43.777 Y98.390 E5.19361
G1 X43.923 Y98.703 E5.22497
G1 X44.012 Y99.036 E5.25633
G1 X44.038 Y99.337 E5.28380
G1 X44.038 Y107.422 E6.01899
G1 X44.012 Y107.723 E6.04646
G1 X43.923 Y108.056 E6.07782
G1 X43.777 Y108.369 E6.10918
G1 X43.579 Y108.652 E6.14054
G1 X43.335 Y108.895 E6.17190
G1 X43.053 Y109.093 E6.20326
G1 X42.740 Y109.239 E6.23462
G1 X42.407 Y109.328 E6.26599
G1 X42.106 Y109.355 E6.29346
G1 X36.320 Y109.355 E6.81958
G1 X36.833 Y108.730 F7800.000
G1 X36.697 Y107.177 E6.96130 F1800.000
G1 X36.425 Y106.087 E7.06351
G1 X35.962 Y105.016 E7.16952
G1 X35.332 Y104.037 E7.27545
G1 X34.517 Y103.145 E7.38531
G1 X33.638 Y102.444 E7.48752
G1 X32.620 Y101.875 E7.59354
G1 X31.523 Y101.480 E7.69955
G1 X30.377 Y101.268 E7.80557
G1 X29.211 Y101.245 E7.91158
G1 X27.710 Y101.462 E8.04953
G1 X27.299 Y99.667 E8.21692
G1 X27.269 Y99.463 E8.23565
G1 X27.273 Y99.243 E8.25569
G1 X27.314 Y99.026 E8.27573
G1 X27.388 Y98.819 E8.29576
G1 X27.496 Y98.627 E8.31580
G1 X27.633 Y98.454 E8.33584
G1 X27.797 Y98.307 E8.35588
G1 X27.982 Y98.187 E8.37591
G1 X28.184 Y98.100 E8.39595
G1 X28.398 Y98.047 E8.41599
G1 X28.603 Y98.030 E8.43472
G1 X42.079 Y98.030 E9.66003
G1 X42.298 Y98.049 E9.68006
G1 X42.526 Y98.110 E9.70147
G1 X42.739 Y98.209 E9.72289
G1 X42.932 Y98.345 E9.74431
G1 X43.099 Y98.511 E9.76573
G1 X43.234 Y98.704 E9.78715
G1 X43.333 Y98.918 E9.80857
G1 X43.394 Y99.145 E9.82999
G1 X43.414 Y99.364 E9.85001
G1 X43.414 Y107.395 E10.58023
G1 X43.394 Y107.614 E10.60025
G1 X43.333 Y107.842 E10.62167
G1 X43.234 Y108.055 E10.64309
G1 X43.099 Y108.248 E10.66451
G1 X42.932 Y108.415 E10.68593
G1 X42.739 Y108.550 E10.70734
G1 X42.526 Y108.650 E10.72876
G1 X42.298 Y108.711 E10.75018
G1 X42.079 Y108.730 E10.77021
G1 X36.893 Y108.730 E11.24177
G1 X36.433 Y108.753 F7800.000
G1 E9.24177 F2400.00000
G92 E0
G1 X36.833 Y94.979 F7800.000
G1 E2.00000 F2400.00000
G1 X26.947 Y94.979 E2.89892 F1800.000
G1 X26.578 Y94.948 E2.93258
G1 X26.154 Y94.839 E2.97239
G1 X25.755 Y94.660 E3.01219
G1 X25.391 Y94.417 E3.05199
G1 X25.072 Y94.117 E3.09179
G1 X24.809 Y93.767 E3.13159
G1 X24.608 Y93.378 E3.17139
G1 X24.495 Y93.026 E3.20505
G1 X22.821 Y85.717 E3.88684
G1 X22.769 Y85.362 E3.91952
G1 X22.778 Y84.937 E3.95815
G1 X22.855 Y84.519 E3.99678
G1 X22.999 Y84.119 E4.03542
G1 X23.207 Y83.748 E4.07405
G1 X23.471 Y83.416 E4.11268
G1 X23.787 Y83.131 E4.15132
G1 X24.144 Y82.901 E4.18995
G1 X24.534 Y82.733 E4.22858
G1 X24.936 Y82.632 E4.26629
G1 X25.300 Y82.601 E4.29948
G1 X42.133 Y82.601 E5.83015 F1800.000
G1 X42.516 Y82.634 E5.86508
G1 X42.955 Y82.752 E5.90638
G1 X43.367 Y82.944 E5.94769
G1 X43.739 Y83.204 E5.98899
G1 X44.060 Y83.525 E6.03029
G1 X44.320 Y83.897 E6.07160
G1 X44.512 Y84.309 E6.11290
G1 X44.630 Y84.748 E6.15420
G1 X44.663 Y85.130 E6.18913
G1 X44.663 Y92.450 E6.85466
G1 X44.630 Y92.832 E6.88958
G1 X44.512 Y93.271 E6.93088
G1 X44.320 Y93.683 E6.97219
G1 X44.060 Y94.055 E7.01349
G1 X43.739 Y94.376 E7.05479
G1 X43.367 Y94.636 E7.09610
G1 X42.955 Y94.828 E7.13740
G1 X42.516 Y94.946 E7.17871
G1 X42.133 Y94.979 E7.21363
G1 X36.893 Y94.979 E7.69016
G1 X36.833 Y94.355 F7800.000
G1 X26.973 Y94.355 E8.58669 F1800.000
G1 X26.683 Y94.330 E8.61317
G1 X26.361 Y94.247 E8.64339
G1 X26.058 Y94.111 E8.67361
G1 X25.781 Y93.927 E8.70384
G1 X25.540 Y93.699 E8.73406
G1 X25.340 Y93.433 E8.76428
G1 X25.187 Y93.138 E8.79450
G1 X25.098 Y92.861 E8.82098
G1 X23.436 Y85.602 E9.49806
G1 X23.395 Y85.323 E9.52376
G1 X23.402 Y85.000 E9.55310
G1 X23.460 Y84.683 E9.58243
G1 X23.570 Y84.379 E9.61177
G1 X23.727 Y84.098 E9.64110
G1 X23.928 Y83.846 E9.67044
G1 X24.168 Y83.629 E9.69978
G1 X24.439 Y83.455 E9.72911
G1 X24.735 Y83.327 E9.75845
G1 X25.040 Y83.250 E9.78702
G1 X25.327 Y83.225 E9.81323
G1 X42.106 Y83.225 E11.33895 F1800.000
G1 X42.407 Y83.252 E11.36642
G1 X42.740 Y83.341 E11.39779
G1 X43.053 Y83.487 E11.42915
G1 X43.335 Y83.685 E11.46050
G1 X43.579 Y83.928 E11.49186
G1 X43.777 Y84.211 E11.52323
G1 X43.923 Y84.524 E11.55459
G1 X44.012 Y84.857 E11.58595
G1 X44.038 Y85.158 E11.61342
G1 X44.038 Y92.422 E12.27399
G1 X44.012 Y92.723 E12.30146
G1 X43.923 Y93.056 E12.33282
G1 X43.777 Y93.369 E12.36419
G1 X43.579 Y93.652 E12.39555
G1 X43.335 Y93.895 E12.42691
G1 X43.053 Y94.093 E12.45827
G1 X42.740 Y94.239 E12.48963
G1 X42.407 Y94.328 E12.52099
G1 X42.106 Y94.355 E12.54847
G1 X36.893 Y94.355 E13.02251
G1 X36.833 Y93.730 F7800.000
G1 X26.999 Y93.730 E13.91665 F1800.000
G1 X26.788 Y93.712 E13.93595
G1 X26.568 Y93.655 E13.95659
G1 X26.361 Y93.563 E13.97724
G1 X26.172 Y93.436 E13.99788
G1 X26.007 Y93.281 E14.01852
G1 X25.870 Y93.099 E14.03916
G1 X25.766 Y92.898 E14.05980
G1 X25.702 Y92.696 E14.07910
G1 X24.050 Y85.488 E14.75147
G1 X24.021 Y85.284 E14.77020
G1 X24.025 Y85.064 E14.79024
G1 X24.065 Y84.847 E14.81028
G1 X24.140 Y84.640 E14.83032
G1 X24.248 Y84.447 E14.85035
G1 X24.385 Y84.275 E14.87039
G1 X24.549 Y84.127 E14.89043
G1 X24.734 Y84.008 E14.91047
G1 X24.936 Y83.921 E14.93050
G1 X25.143 Y83.869 E14.94993
G1 X25.354 Y83.850 E14.96918
G1 X42.079 Y83.850 E16.48994 F1800.000
G1 X42.298 Y83.869 E16.50996
G1 X42.526 Y83.930 E16.53138
G1 X42.739 Y84.030 E16.55280
G1 X42.932 Y84.165 E16.57422
G1 X43.099 Y84.332 E16.59563
G1 X43.234 Y84.525 E16.61705
G1 X43.333 Y84.738 E16.63847
G1 X43.394 Y84.966 E16.65989
G1 X43.414 Y85.185 E16.67991
G1 X43.414 Y92.395 E17.33552
G1 X43.394 Y92.614 E17.35554
G1 X43.333 Y92.842 E17.37696
G1 X43.234 Y93.055 E17.39838
G1 X43.099 Y93.248 E17.41980
G1 X42.932 Y93.415 E17.44121
G1 X42.739 Y93.550 E17.46263
G1 X42.526 Y93.650 E17.48405
G1 X42.298 Y93.711 E17.50547
G1 X42.079 Y93.730 E17.52549
G1 X36.893 Y93.730 E17.99706
G1 X36.633 Y94.076 F7800.000
G1 E15.99706 F2400.00000
G92 E0
G1 X26.000 Y80.995 F7800.000
G1 E2.00000 F2400.00000
G1 X25.223 Y81.538 E2.08620 F1800.000
G1 X24.318 Y81.967 E2.17724
G1 X23.370 Y82.221 E2.26653
G1 X22.396 Y82.306 E2.35538
G1 X21.423 Y82.221 E2.44424
G1 X20.479 Y81.968 E2.53309
G1 X19.594 Y81.555 E2.62194
G1 X18.793 Y80.995 E2.71080
G1 X18.102 Y80.304 E2.79965
G1 X17.542 Y79.503 E2.88851
G1 X17.129 Y78.618 E2.97736
G1 X16.876 Y77.674 E3.06621
G1 X16.791 Y76.700 E3.15507
G1 X16.876 Y75.727 E3.24392
G1 X17.129 Y74.783 E3.33277
G1 X17.542 Y73.897 E3.42163
G1 X18.102 Y73.097 E3.51048
G1 X18.793 Y72.406 E3.59934
G1 X19.594 Y71.845 E3.68819
G1 X20.539 Y71.405 E3.78301
G1 X21.435 Y71.179 E3.86704
G1 X22.367 Y71.097 E3.95218 F1800.000
G1 X23.365 Y71.178 E4.04322
G1 X24.314 Y71.432 E4.13251
G1 X25.199 Y71.845 E4.22136
G1 X26.000 Y72.406 E4.31022
G1 X26.691 Y73.097 E4.39907
G1 X27.251 Y73.897 E4.48792
G1 X27.652 Y74.757 E4.57413
G1 X27.917 Y75.722 E4.66517
G1 X28.002 Y76.700 E4.75445
G1 X27.917 Y77.674 E4.84331
G1 X27.664 Y78.618 E4.93216
G1 X27.251 Y79.503 E5.02101
G1 X26.691 Y80.304 E5.10987
G1 X26.042 Y80.952 E5.19327
G1 X25.597 Y80.514 F7800.000
G1 X24.908 Y80.996 E5.26970 F1800.000
G1 X24.102 Y81.378 E5.35079
G1 X23.261 Y81.603 E5.42997
G1 X22.396 Y81.679 E5.50888
G1 X21.532 Y81.603 E5.58779
G1 X20.694 Y81.379 E5.66670
G1 X19.907 Y81.012 E5.74561
G1 X19.196 Y80.514 E5.82452
G1 X18.583 Y79.900 E5.90344
G1 X18.085 Y79.190 E5.98235
G1 X17.718 Y78.403 E6.06126
G1 X17.493 Y77.565 E6.14017
G1 X17.418 Y76.700 E6.21908
G1 X17.493 Y75.836 E6.29799
G1 X17.718 Y74.998 E6.37690
G1 X18.085 Y74.211 E6.45582
G1 X18.583 Y73.500 E6.53473
G1 X19.196 Y72.886 E6.61364
G1 X19.907 Y72.389 E6.69255
G1 X20.749 Y71.996 E6.77701
G1 X21.539 Y71.797 E6.85110
G1 X22.369 Y71.724 E6.92688 F1800.000
G1 X23.258 Y71.797 E7.00798
G1 X24.099 Y72.022 E7.08716
G1 X24.886 Y72.389 E7.16607
G1 X25.597 Y72.886 E7.24498
G1 X26.210 Y73.500 E7.32389
G1 X26.708 Y74.211 E7.40280
G1 X27.063 Y74.973 E7.47923
G1 X27.299 Y75.833 E7.56033
G1 X27.375 Y76.700 E7.63950
G1 X27.299 Y77.565 E7.71842
G1 X27.075 Y78.403 E7.79733
G1 X26.708 Y79.190 E7.87624
G1 X26.210 Y79.900 E7.95515
G1 X25.639 Y80.472 E8.02860
G1 X25.193 Y80.034 F7800.000
G1 X24.593 Y80.454 E8.09526 F1800.000
G1 X23.886 Y80.789 E8.16642
G1 X23.152 Y80.986 E8.23548
G1 X22.396 Y81.052 E8.30445
G1 X21.641 Y80.986 E8.37342
G1 X20.908 Y80.789 E8.44239
G1 X20.221 Y80.469 E8.51136
G1 X19.599 Y80.034 E8.58032
G1 X19.063 Y79.497 E8.64929
G1 X18.628 Y78.876 E8.71826
G1 X18.308 Y78.189 E8.78723
G1 X18.111 Y77.456 E8.85620
G1 X18.045 Y76.700 E8.92517
G1 X18.111 Y75.945 E8.99414
G1 X18.308 Y75.212 E9.06311
G1 X18.628 Y74.525 E9.13208
G1 X19.063 Y73.903 E9.20105
G1 X19.599 Y73.367 E9.27001
G1 X20.221 Y72.932 E9.33898
G1 X20.959 Y72.588 E9.41309
G1 X21.643 Y72.415 E9.47724
G1 X22.371 Y72.351 E9.54366 F1800.000
G1 X23.151 Y72.415 E9.61481
G1 X23.885 Y72.611 E9.68388
G1 X24.572 Y72.932 E9.75285
G1 X25.193 Y73.367 E9.82181
G1 X25.730 Y73.903 E9.89078
G1 X26.165 Y74.525 E9.95975
G1 X26.475 Y75.189 E10.02641
G1 X26.682 Y75.944 E10.09756
G1 X26.748 Y76.700 E10.16663
G1 X26.682 Y77.456 E10.23560
G1 X26.485 Y78.189 E10.30457
G1 X26.165 Y78.876 E10.37353
G1 X25.730 Y79.497 E10.44250
G1 X25.236 Y79.991 E10.50602
G1 X25.251 Y80.429 F7800.000
G1 X28.797 Y76.979 F7800.000
G1 X51.464 Y76.979 E12.56712 F1800.000
G1 X51.464 Y95.197 E14.22367
G1 X49.464 Y95.197 E14.40553
G1 X49.464 Y103.397 E15.15111
G1 X51.464 Y103.397 E15.33297
G1 X51.464 Y104.197 E15.40575
G1 X49.464 Y104.197 E15.58761
G1 X49.464 Y112.397 E16.33319
G1 X51.464 Y112.397 E16.51505
G1 X51.464 Y120.581 E17.25919
G1 X49.663 Y120.581 E17.42291
G1 X49.663 Y114.780 E17.95036
G1 X31.307 Y114.780 E19.61949
G1 X29.997 Y114.682 E19.73898
G1 X28.774 Y114.403 E19.85301
G1 X27.882 Y114.053 E19.94016
G1 X27.992 Y113.716 E19.97240
G1 X28.680 Y113.900 E20.03713
G1 X29.654 Y113.986 E20.12598
G1 X30.627 Y113.900 E20.21484
G1 X31.571 Y113.648 E20.30369
G1 X32.456 Y113.235 E20.39254
G1 X33.257 Y112.674 E20.48140
G1 X33.948 Y111.983 E20.57025
G1 X34.508 Y111.183 E20.65910
G1 X34.921 Y110.297 E20.74796
G1 X35.174 Y109.353 E20.83681
G1 X35.232 Y108.696 E20.89678
G1 X35.575 Y108.696 E20.92802
G1 X35.687 Y109.979 E21.04515
G1 X42.133 Y109.979 E21.63127
G1 X42.516 Y109.946 E21.66620
G1 X42.955 Y109.828 E21.70751
G1 X43.367 Y109.636 E21.74882
G1 X43.739 Y109.376 E21.79011
G1 X44.060 Y109.055 E21.83141
G1 X44.320 Y108.683 E21.87272
G1 X44.512 Y108.271 E21.91403
G1 X44.630 Y107.832 E21.95533
G1 X44.663 Y107.450 E21.99025
G1 X44.663 Y99.310 E22.73040
G1 X44.630 Y98.927 E22.76532
G1 X44.512 Y98.488 E22.80663
G1 X44.320 Y98.077 E22.84793
G1 X44.060 Y97.705 E22.88923
G1 X43.739 Y97.383 E22.93054
G1 X43.366 Y97.123 E22.97184
G1 X42.955 Y96.931 E23.01315
G1 X42.516 Y96.813 E23.05445
G1 X42.133 Y96.780 E23.08938
G1 X28.552 Y96.780 E24.32429
G1 X28.194 Y96.809 E24.35696
G1 X27.782 Y96.912 E24.39560
G1 X27.392 Y97.081 E24.43423
