; generated by Slic3r 1.3.1-dev on 2020-02-12 at 17:11:51

; external perimeters extrusion width = 0.44mm (1.26mm^3/s)
; perimeters extrusion width = 0.56mm (3.23mm^3/s)
; infill extrusion width = 0.50mm (3.83mm^3/s)
; solid infill extrusion width = 0.56mm (1.08mm^3/s)
; top infill extrusion width = 0.56mm (0.81mm^3/s)
; support material extrusion width = 0.44mm (2.51mm^3/s)

M107
M190 S65 ; set bed temperature and wait for it to be reached
M104 S210 ; set temperature
G28 ; home all axes
G1 Z5 F5000 ; lift nozzle

; Filament gcode

M109 S210 ; set temperature and wait for it to be reached
G21 ; set units to millimeters
G90 ; use absolute coordinates
M82 ; use absolute distances for extrusion
G92 E0
G92 E0
G1 Z0.350 F7800.000
G1 E-2.00000 F2400.00000
G92 E0
G1 X24.505 Y77.898 F7800.000
G1 E2.00000 F2400.00000
G1 F1800
G1 X25.748 Y77.521 E2.11809
G1 X27.048 Y77.262 E2.23862
G1 X28.341 Y77.135 E2.35670
G1 X34.059 Y77.135 E2.87669
G1 X35.352 Y77.262 E2.99477
G1 X36.652 Y77.521 E3.11531
G1 X37.894 Y77.898 E3.23339
G1 X43.178 Y80.086 E3.75337
G1 X44.323 Y80.698 E3.87146
G1 X45.425 Y81.435 E3.99199
G1 X46.429 Y82.259 E4.11007
G1 X50.473 Y86.302 E4.63006
G1 X51.296 Y87.306 E4.74815
G1 X52.033 Y88.408 E4.86868
G1 X52.645 Y89.554 E4.98676
G1 X54.833 Y94.837 E5.50674
G1 X55.210 Y96.080 E5.62483
G1 X55.469 Y97.380 E5.74535
G1 X55.596 Y98.672 E5.86345
G1 X55.596 Y104.391 E6.38343
G1 X55.469 Y105.683 E6.50152
G1 X55.210 Y106.983 E6.62205
G1 X54.833 Y108.226 E6.74013
G1 X52.645 Y113.509 E7.26011
G1 X52.033 Y114.654 E7.37820
G1 X51.296 Y115.756 E7.49872
G1 X50.473 Y116.760 E7.61682
G1 X46.429 Y120.804 E8.13680
G1 X45.425 Y121.628 E8.25490
G1 X44.323 Y122.364 E8.37542
G1 X43.178 Y122.976 E8.49350
G1 X37.894 Y125.165 E9.01348
G1 X36.652 Y125.542 E9.13158
G1 X35.352 Y125.800 E9.25210
G1 X34.059 Y125.928 E9.37019
G1 X28.341 Y125.928 E9.89017
G1 X27.048 Y125.800 E10.00826
G1 X25.748 Y125.542 E10.12879
G1 X24.505 Y125.165 E10.24687
G1 X19.222 Y122.976 E10.76686
G1 X18.077 Y122.364 E10.88494
G1 X16.975 Y121.628 E11.00546
G1 X15.971 Y120.804 E11.12356
G1 X11.927 Y116.760 E11.64354
G1 X11.103 Y115.756 E11.76163
G1 X10.367 Y114.654 E11.88216
G1 X9.755 Y113.509 E12.00024
G1 X7.566 Y108.226 E12.52023
G1 X7.189 Y106.983 E12.63832
G1 X6.931 Y105.683 E12.75884
G1 X6.804 Y104.391 E12.87693
G1 X6.804 Y98.672 E13.39691
G1 X6.931 Y97.380 E13.51500
G1 X7.189 Y96.080 E13.63553
G1 X7.566 Y94.837 E13.75362
G1 X9.755 Y89.554 E14.27360
G1 X10.367 Y88.408 E14.39169
G1 X11.103 Y87.306 E14.51221
G1 X11.927 Y86.302 E14.63030
G1 X15.971 Y82.259 E15.15028
G1 X16.975 Y81.435 E15.26838
G1 X18.077 Y80.698 E15.38891
G1 X19.222 Y80.086 E15.50699
G1 X24.450 Y77.921 E16.02151
G1 E14.02151 F2400.00000
G92 E0
G1 X31.883 Y105.403 F7800.000
G1 E2.00000 F2400.00000
G1 F1800
G1 X31.200 Y105.462 E2.06231
G1 X30.517 Y105.403 E2.12461
G1 X29.855 Y105.225 E2.18692
G1 X29.234 Y104.936 E2.24922
G1 X28.673 Y104.543 E2.31153
G1 X28.189 Y104.058 E2.37383
G1 X27.796 Y103.497 E2.43613
G1 X27.506 Y102.876 E2.49844
G1 X27.329 Y102.214 E2.56074
G1 X27.269 Y101.531 E2.62305
G1 X27.329 Y100.849 E2.68535
G1 X27.506 Y100.187 E2.74766
G1 X27.796 Y99.566 E2.80996
G1 X28.189 Y99.005 E2.87227
G1 X28.673 Y98.520 E2.93457
G1 X29.234 Y98.127 E2.99688
G1 X29.856 Y97.838 E3.05918
G1 X30.517 Y97.660 E3.12149
G1 X31.200 Y97.600 E3.18379
G1 X31.883 Y97.660 E3.24610
G1 X32.544 Y97.838 E3.30840
G1 X33.165 Y98.127 E3.37071
G1 X33.727 Y98.520 E3.43301
G1 X34.211 Y99.005 E3.49532
G1 X34.604 Y99.566 E3.55762
G1 X34.894 Y100.187 E3.61993
G1 X35.071 Y100.849 E3.68223
G1 X35.131 Y101.531 E3.74454
G1 X35.071 Y102.214 E3.80684
G1 X34.894 Y102.876 E3.86915
G1 X34.604 Y103.497 E3.93145
G1 X34.211 Y104.058 E3.99376
G1 X33.727 Y104.543 E4.05606
G1 X33.165 Y104.936 E4.11837
G1 X32.544 Y105.225 E4.18067
G1 X31.940 Y105.387 E4.23752
G1 X31.774 Y104.785 F7800.000
G1 F1800
G1 X31.200 Y104.835 E4.28988
G1 X30.626 Y104.785 E4.34225
G1 X30.070 Y104.636 E4.39461
G1 X29.548 Y104.392 E4.44697
G1 X29.076 Y104.062 E4.49933
G1 X28.669 Y103.655 E4.55170
G1 X28.339 Y103.183 E4.60406
G1 X28.096 Y102.661 E4.65642
G1 X27.947 Y102.105 E4.70878
G1 X27.896 Y101.531 E4.76115
G1 X27.947 Y100.958 E4.81351
G1 X28.096 Y100.401 E4.86587
G1 X28.339 Y99.880 E4.91823
G1 X28.669 Y99.408 E4.97059
G1 X29.076 Y99.001 E5.02296
G1 X29.548 Y98.670 E5.07532
G1 X30.070 Y98.427 E5.12768
G1 X30.626 Y98.278 E5.18005
G1 X31.200 Y98.228 E5.23241
G1 X31.774 Y98.278 E5.28477
G1 X32.330 Y98.427 E5.33713
G1 X32.852 Y98.670 E5.38950
G1 X33.323 Y99.001 E5.44186
G1 X33.731 Y99.408 E5.49422
G1 X34.061 Y99.880 E5.54658
G1 X34.304 Y100.401 E5.59895
G1 X34.453 Y100.958 E5.65131
G1 X34.504 Y101.531 E5.70367
G1 X34.453 Y102.105 E5.75603
G1 X34.304 Y102.661 E5.80839
G1 X34.061 Y103.183 E5.86076
G1 X33.731 Y103.655 E5.91312
G1 X33.323 Y104.062 E5.96548
G1 X32.852 Y104.392 E6.01785
G1 X32.330 Y104.636 E6.07021
G1 X31.832 Y104.769 E6.11711
G1 X31.665 Y104.167 F7800.000
G1 F1800
G1 X31.200 Y104.208 E6.15954
G1 X30.735 Y104.167 E6.20196
G1 X30.285 Y104.046 E6.24438
G1 X29.862 Y103.849 E6.28680
G1 X29.480 Y103.582 E6.32922
G1 X29.150 Y103.252 E6.37164
G1 X28.882 Y102.870 E6.41406
G1 X28.685 Y102.447 E6.45648
G1 X28.564 Y101.996 E6.49890
G1 X28.524 Y101.531 E6.54132
G1 X28.564 Y101.067 E6.58374
G1 X28.685 Y100.616 E6.62616
G1 X28.882 Y100.193 E6.66858
G1 X29.150 Y99.811 E6.71100
G1 X29.480 Y99.481 E6.75342
G1 X29.862 Y99.214 E6.79584
G1 X30.285 Y99.016 E6.83826
G1 X30.735 Y98.896 E6.88068
G1 X31.200 Y98.855 E6.92310
G1 X31.665 Y98.896 E6.96552
G1 X32.115 Y99.016 E7.00794
G1 X32.538 Y99.214 E7.05036
G1 X32.920 Y99.481 E7.09278
G1 X33.250 Y99.811 E7.13520
G1 X33.518 Y100.193 E7.17762
G1 X33.715 Y100.616 E7.22004
G1 X33.836 Y101.067 E7.26246
G1 X33.876 Y101.531 E7.30488
G1 X33.836 Y101.996 E7.34730
G1 X33.715 Y102.447 E7.38972
G1 X33.518 Y102.870 E7.43214
G1 X33.250 Y103.252 E7.47456
G1 X32.920 Y103.582 E7.51698
G1 X32.538 Y103.849 E7.55940
G1 X32.115 Y104.046 E7.60182
G1 X31.723 Y104.151 E7.63878
G1 X31.665 Y104.167 F7800.000
G1 E5.63878 F2400.00000
G92 E0
G1 X33.935 Y114.655 F7800.000
G1 E2.00000 F2400.00000
G1 F1800
G1 X33.664 Y114.691 E2.02485
G1 X33.586 Y114.526 E2.04144
G1 X33.329 Y114.150 E2.08284
G1 X32.617 Y113.411 E2.17614
G1 X29.769 Y113.411 E2.43517
G1 X29.027 Y114.204 E2.53387
G1 X28.705 Y114.703 E2.58790
G1 X28.441 Y114.632 E2.61275
G1 X28.432 Y114.450 E2.62934
G1 X28.338 Y114.005 E2.67074
G1 X27.963 Y113.050 E2.76404
G1 X25.331 Y111.959 E3.02307
G1 X24.343 Y112.408 E3.12177
G1 X23.854 Y112.746 E3.17580
G1 X23.637 Y112.579 E3.20066
G1 X23.699 Y112.407 E3.21725
G1 X23.783 Y111.960 E3.25864
G1 X23.802 Y110.934 E3.35195
G1 X21.787 Y108.920 E3.61097
G1 X20.703 Y108.956 E3.70967
G1 X20.122 Y109.081 E3.76371
G1 X19.985 Y108.844 E3.78856
G1 X20.108 Y108.709 E3.80515
G1 X20.357 Y108.328 E3.84654
G1 X20.767 Y107.387 E3.93985
G1 X19.676 Y104.755 E4.19887
G1 X18.660 Y104.373 E4.29757
G1 X18.076 Y104.267 E4.35161
G1 X18.040 Y103.996 E4.37646
G1 X18.205 Y103.918 E4.39305
G1 X18.581 Y103.661 E4.43444
G1 X19.320 Y102.949 E4.52775
G1 X19.320 Y100.100 E4.78678
G1 X18.527 Y99.358 E4.88548
G1 X18.028 Y99.036 E4.93951
G1 X18.099 Y98.772 E4.96436
G1 X18.281 Y98.763 E4.98095
G1 X18.727 Y98.670 E5.02235
G1 X19.682 Y98.295 E5.11566
G1 X20.772 Y95.663 E5.37468
G1 X20.324 Y94.674 E5.47338
G1 X19.986 Y94.185 E5.52742
G1 X20.152 Y93.969 E5.55227
G1 X20.324 Y94.030 E5.56886
G1 X20.771 Y94.114 E5.61025
G1 X21.797 Y94.133 E5.70356
G1 X23.812 Y92.119 E5.96258
G1 X23.776 Y91.034 E6.06129
G1 X23.650 Y90.453 E6.11532
G1 X23.887 Y90.316 E6.14017
G1 X24.022 Y90.439 E6.15676
G1 X24.404 Y90.688 E6.19815
G1 X25.344 Y91.098 E6.29146
G1 X27.976 Y90.008 E6.55049
G1 X28.358 Y88.992 E6.64919
G1 X28.465 Y88.407 E6.70322
G1 X28.736 Y88.372 E6.72807
G1 X28.814 Y88.537 E6.74466
G1 X29.070 Y88.912 E6.78605
G1 X29.783 Y89.651 E6.87936
G1 X32.631 Y89.651 E7.13839
G1 X33.373 Y88.859 E7.23709
G1 X33.695 Y88.360 E7.29112
G1 X33.959 Y88.430 E7.31597
G1 X33.968 Y88.613 E7.33256
G1 X34.062 Y89.058 E7.37396
G1 X34.437 Y90.013 E7.46727
G1 X37.069 Y91.103 E7.72629
G1 X38.057 Y90.655 E7.82499
G1 X38.546 Y90.317 E7.87903
G1 X38.763 Y90.483 E7.90388
G1 X38.701 Y90.655 E7.92047
G1 X38.617 Y91.103 E7.96186
G1 X38.598 Y92.129 E8.05517
G1 X40.612 Y94.143 E8.31419
G1 X41.697 Y94.107 E8.41289
G1 X42.278 Y93.982 E8.46693
G1 X42.415 Y94.219 E8.49178
G1 X42.292 Y94.354 E8.50837
G1 X42.043 Y94.735 E8.54976
G1 X41.633 Y95.676 E8.64307
G1 X42.723 Y98.307 E8.90209
G1 X43.739 Y98.689 E9.00079
G1 X44.324 Y98.796 E9.05483
G1 X44.360 Y99.067 E9.07968
G1 X44.195 Y99.145 E9.09627
G1 X43.819 Y99.402 E9.13766
G1 X43.080 Y100.114 E9.23097
G1 X43.080 Y102.963 E9.48999
G1 X43.872 Y103.704 E9.58869
G1 X44.372 Y104.027 E9.64273
G1 X44.301 Y104.291 E9.66758
G1 X44.119 Y104.299 E9.68417
G1 X43.673 Y104.393 E9.72556
G1 X42.718 Y104.768 E9.81887
G1 X41.628 Y107.400 E10.07789
G1 X42.076 Y108.389 E10.17659
G1 X42.414 Y108.877 E10.23063
G1 X42.248 Y109.094 E10.25548
G1 X42.076 Y109.033 E10.27207
G1 X41.629 Y108.948 E10.31346
G1 X40.603 Y108.930 E10.40677
G1 X38.588 Y110.944 E10.66579
G1 X38.624 Y112.029 E10.76449
G1 X38.749 Y112.610 E10.81853
G1 X38.513 Y112.746 E10.84338
G1 X38.378 Y112.624 E10.85997
G1 X37.996 Y112.375 E10.90136
G1 X37.056 Y111.965 E10.99467
G1 X34.424 Y113.055 E11.25370
G1 X34.042 Y114.071 E11.35239
G1 X33.946 Y114.596 E11.40097
G1 E9.40097 F2400.00000
G92 E0
G1 X34.540 Y118.380 F7800.000
G1 E2.00000 F2400.00000
G1 F1800
G1 X34.024 Y117.684 E2.07884
G1 X33.653 Y117.035 E2.14678
G1 X33.469 Y116.575 E2.19179
G1 X33.395 Y116.227 E2.22418
G1 X33.304 Y115.541 E2.28713
G1 X33.188 Y115.146 E2.32451
G1 X33.043 Y114.838 E2.35552
G1 X32.843 Y114.546 E2.38765
G1 X32.352 Y114.036 E2.45204
G1 X30.040 Y114.036 E2.66227
G1 X29.522 Y114.590 E2.73122
G1 X29.332 Y114.883 E2.76296
G1 X29.194 Y115.196 E2.79407
G1 X29.099 Y115.529 E2.82558
G1 X28.980 Y116.384 E2.90399
G1 X28.900 Y116.670 E2.93102
G1 X28.624 Y117.272 E2.99122
G1 X28.230 Y117.896 E3.05837
G1 X27.838 Y118.376 E3.11469
G1 X27.628 Y117.535 E3.19353
G1 X27.534 Y116.794 E3.26147
G1 X27.540 Y116.299 E3.30648
G1 X27.604 Y115.948 E3.33886
G1 X27.782 Y115.279 E3.40182
G1 X27.827 Y114.871 E3.43919
G1 X27.810 Y114.530 E3.47020
G1 X27.738 Y114.184 E3.50233
G1 X27.479 Y113.525 E3.56672
G1 X25.343 Y112.640 E3.77695
G1 X24.652 Y112.954 E3.84591
G1 X24.365 Y113.152 E3.87765
G1 X24.117 Y113.388 E3.90875
G1 X23.902 Y113.660 E3.94027
G1 X23.466 Y114.404 E4.01868
G1 X23.282 Y114.637 E4.04570
G1 X22.797 Y115.088 E4.10591
G1 X22.193 Y115.513 E4.17306
G1 X21.648 Y115.807 E4.22937
G1 X21.776 Y114.950 E4.30821
G1 X21.972 Y114.229 E4.37616
G1 X22.167 Y113.774 E4.42117
G1 X22.360 Y113.475 E4.45355
G1 X22.781 Y112.925 E4.51651
G1 X22.979 Y112.564 E4.55388
G1 X23.094 Y112.243 E4.58489
G1 X23.159 Y111.896 E4.61702
G1 X23.172 Y111.188 E4.68141
G1 X21.537 Y109.553 E4.89164
G1 X20.779 Y109.578 E4.96059
G1 X20.438 Y109.652 E4.99234
G1 X20.119 Y109.775 E5.02344
G1 X19.816 Y109.944 E5.05495
G1 X19.128 Y110.464 E5.13337
G1 X18.869 Y110.609 E5.16039
G1 X18.249 Y110.840 E5.22059
G1 X17.528 Y111.002 E5.28774
G1 X16.912 Y111.065 E5.34406
G1 X17.358 Y110.322 E5.42290
G1 X17.816 Y109.731 E5.49084
G1 X18.170 Y109.385 E5.53585
G1 X18.463 Y109.183 E5.56823
G1 X19.062 Y108.836 E5.63119
G1 X19.382 Y108.579 E5.66857
G1 X19.611 Y108.326 E5.69958
G1 X19.805 Y108.030 E5.73171
G1 X20.088 Y107.381 E5.79609
G1 X19.203 Y105.245 E6.00633
G1 X18.493 Y104.978 E6.07528
G1 X18.150 Y104.915 E6.10702
G1 X17.808 Y104.907 E6.13813
G1 X17.463 Y104.947 E6.16964
G1 X16.629 Y105.164 E6.24805
G1 X16.334 Y105.199 E6.27508
G1 X15.672 Y105.175 E6.33528
G1 X14.944 Y105.049 E6.40243
G1 X14.351 Y104.872 E6.45875
G1 X15.048 Y104.356 E6.53758
G1 X15.697 Y103.985 E6.60553
G1 X16.156 Y103.801 E6.65054
G1 X16.504 Y103.726 E6.68292
G1 X17.191 Y103.635 E6.74588
G1 X17.585 Y103.520 E6.78325
G1 X17.893 Y103.374 E6.81426
G1 X18.185 Y103.175 E6.84639
G1 X18.695 Y102.683 E6.91078
G1 X18.695 Y100.371 E7.12101
G1 X18.141 Y99.853 E7.18997
G1 X17.848 Y99.664 E7.22171
G1 X17.535 Y99.525 E7.25281
G1 X17.202 Y99.431 E7.28433
G1 X16.348 Y99.312 E7.36274
G1 X16.062 Y99.231 E7.38976
G1 X15.460 Y98.956 E7.44996
G1 X14.836 Y98.561 E7.51711
G1 X14.355 Y98.170 E7.57343
G1 X15.196 Y97.959 E7.65227
G1 X15.938 Y97.865 E7.72022
G1 X16.433 Y97.871 E7.76523
G1 X16.783 Y97.935 E7.79761
G1 X17.452 Y98.114 E7.86057
G1 X17.861 Y98.158 E7.89794
G1 X18.201 Y98.142 E7.92895
G1 X18.547 Y98.069 E7.96108
G1 X19.206 Y97.810 E8.02547
G1 X20.091 Y95.674 E8.23570
G1 X19.778 Y94.983 E8.30465
G1 X19.579 Y94.696 E8.33640
G1 X19.343 Y94.449 E8.36750
G1 X19.071 Y94.234 E8.39901
G1 X18.328 Y93.797 E8.47743
G1 X18.094 Y93.613 E8.50445
G1 X17.643 Y93.128 E8.56465
G1 X17.218 Y92.525 E8.63180
G1 X16.924 Y91.979 E8.68812
G1 X17.782 Y92.107 E8.76696
G1 X18.502 Y92.304 E8.83490
G1 X18.958 Y92.498 E8.87991
G1 X19.257 Y92.692 E8.91229
G1 X19.806 Y93.113 E8.97525
G1 X20.167 Y93.310 E9.01263
G1 X20.488 Y93.425 E9.04363
G1 X20.835 Y93.490 E9.07577
G1 X21.543 Y93.503 E9.14015
G1 X23.178 Y91.869 E9.35038
G1 X23.153 Y91.111 E9.41934
G1 X23.079 Y90.769 E9.45108
G1 X22.956 Y90.450 E9.48218
G1 X22.787 Y90.148 E9.51370
G1 X22.267 Y89.460 E9.59211
G1 X22.122 Y89.200 E9.61914
G1 X21.891 Y88.580 E9.67934
G1 X21.729 Y87.860 E9.74649
G1 X21.666 Y87.243 E9.80280
G1 X22.409 Y87.690 E9.88164
G1 X23.000 Y88.147 E9.94959
G1 X23.346 Y88.501 E9.99460
G1 X23.548 Y88.794 E10.02698
G1 X23.895 Y89.393 E10.08994
G1 X24.153 Y89.714 E10.12731
G1 X24.405 Y89.943 E10.15832
G1 X24.701 Y90.136 E10.19045
G1 X25.350 Y90.419 E10.25484
G1 X27.486 Y89.534 E10.46507
G1 X27.753 Y88.825 E10.53402
G1 X27.816 Y88.481 E10.56577
G1 X27.824 Y88.139 E10.59687
G1 X27.784 Y87.795 E10.62838
G1 X27.567 Y86.960 E10.70680
G1 X27.532 Y86.665 E10.73382
G1 X27.556 Y86.004 E10.79402
G1 X27.682 Y85.276 E10.86117
G1 X27.860 Y84.683 E10.91749
G1 X28.376 Y85.379 E10.99633
G1 X28.746 Y86.028 E11.06427
G1 X28.931 Y86.487 E11.10928
G1 X29.005 Y86.836 E11.14166
G1 X29.096 Y87.522 E11.20462
G1 X29.212 Y87.917 E11.24200
G1 X29.357 Y88.225 E11.27301
G1 X29.557 Y88.517 E11.30514
G1 X30.048 Y89.026 E11.36952
G1 X32.360 Y89.026 E11.57975
G1 X32.878 Y88.473 E11.64871
G1 X33.068 Y88.179 E11.68045
G1 X33.206 Y87.867 E11.71155
G1 X33.301 Y87.533 E11.74307
G1 X33.420 Y86.679 E11.82148
G1 X33.500 Y86.393 E11.84851
G1 X33.775 Y85.791 E11.90871
G1 X34.170 Y85.167 E11.97586
G1 X34.562 Y84.687 E12.03217
G1 X34.772 Y85.528 E12.11101
G1 X34.866 Y86.269 E12.17896
G1 X34.860 Y86.764 E12.22397
G1 X34.796 Y87.114 E12.25635
G1 X34.617 Y87.783 E12.31931
G1 X34.573 Y88.192 E12.35668
G1 X34.590 Y88.533 E12.38769
G1 X34.662 Y88.878 E12.41982
G1 X34.921 Y89.538 E12.48421
G1 X37.057 Y90.422 E12.69444
G1 X37.748 Y90.109 E12.76339
G1 X38.035 Y89.911 E12.79514
G1 X38.283 Y89.675 E12.82624
G1 X38.498 Y89.403 E12.85775
G1 X38.934 Y88.659 E12.93617
G1 X39.118 Y88.426 E12.96319
G1 X39.603 Y87.975 E13.02339
G1 X40.207 Y87.549 E13.09054
G1 X40.752 Y87.255 E13.14686
G1 X40.624 Y88.113 E13.22570
G1 X40.428 Y88.834 E13.29364
G1 X40.233 Y89.289 E13.33865
G1 X40.039 Y89.588 E13.37103
G1 X39.618 Y90.138 E13.43399
G1 X39.421 Y90.498 E13.47137
G1 X39.306 Y90.819 E13.50238
G1 X39.241 Y91.167 E13.53451
G1 X39.228 Y91.875 E13.59889
G1 X40.863 Y93.509 E13.80912
G1 X41.621 Y93.484 E13.87808
G1 X41.962 Y93.411 E13.90982
G1 X42.281 Y93.288 E13.94092
G1 X42.584 Y93.119 E13.97244
G1 X43.272 Y92.599 E14.05085
G1 X43.531 Y92.454 E14.07788
G1 X44.151 Y92.222 E14.13808
G1 X44.872 Y92.060 E14.20523
G1 X45.488 Y91.997 E14.26154
G1 X45.042 Y92.741 E14.34038
G1 X44.584 Y93.332 E14.40833
G1 X44.230 Y93.678 E14.45334
G1 X43.937 Y93.880 E14.48572
G1 X43.338 Y94.227 E14.54868
G1 X43.017 Y94.484 E14.58605
G1 X42.788 Y94.737 E14.61706
G1 X42.595 Y95.033 E14.64919
G1 X42.312 Y95.682 E14.71358
G1 X43.197 Y97.818 E14.92381
G1 X43.907 Y98.085 E14.99276
G1 X44.250 Y98.147 E15.02450
G1 X44.592 Y98.156 E15.05561
G1 X44.936 Y98.115 E15.08712
G1 X45.771 Y97.898 E15.16554
G1 X46.066 Y97.863 E15.19256
G1 X46.728 Y97.887 E15.25276
G1 X47.455 Y98.013 E15.31991
G1 X48.049 Y98.191 E15.37623
G1 X47.352 Y98.707 E15.45507
G1 X46.703 Y99.078 E15.52301
