; generated by Slic3r 1.2.9 on 2020-02-12 at 15:57:04

; external perimeters extrusion width = 0.40mm
; perimeters extrusion width = 0.48mm
; infill extrusion width = 0.48mm
; solid infill extrusion width = 0.48mm
; top infill extrusion width = 0.48mm
; support material extrusion width = 0.40mm

M107
M190 S65 ; set bed temperature
M104 S210 ; set temperature
G28 ; home all axes
G1 Z5 F5000 ; lift nozzle

M109 S210 ; wait for temperature to be reached
G21 ; set units to millimeters
G90 ; use absolute coordinates
M82 ; use absolute distances for extrusion
G92 E0
G1 Z0.350 F7800.000
G1 E-2.00000 F2400.00000
G92 E0
G1 X16.464 Y81.883 F7800.000
G1 E2.00000 F2400.00000
G1 X17.072 Y81.772 E2.05618 F1800.000
G1 X17.748 Y81.685 E2.11819
G1 X18.365 Y81.637 E2.17440
G1 X19.046 Y81.619 E2.23638
G1 X19.633 Y81.634 E2.28975
G1 X20.344 Y81.688 E2.35457 F1800.000
G1 X20.957 Y81.767 E2.41076
G1 X21.627 Y81.889 E2.47277
G1 X22.229 Y82.031 E2.52894
G1 X22.884 Y82.222 E2.59096
G1 X23.467 Y82.425 E2.64715
G1 X24.099 Y82.682 E2.70915
G1 X24.658 Y82.944 E2.76532
G1 X25.260 Y83.264 E2.82735
G1 X25.790 Y83.582 E2.88352
G1 X26.356 Y83.963 E2.94554
G1 X26.850 Y84.334 E3.00171
G1 X27.374 Y84.771 E3.06373
G1 X27.827 Y85.191 E3.11991
G1 X28.303 Y85.679 E3.18192
G1 X28.711 Y86.143 E3.23809
G1 X29.134 Y86.678 E3.30011
G1 X29.492 Y87.181 E3.35628
G1 X29.858 Y87.757 E3.41832
G1 X30.163 Y88.294 E3.47449
G1 X30.467 Y88.904 E3.53650
G1 X30.715 Y89.471 E3.59268
G1 X30.955 Y90.109 E3.65469
G1 X31.143 Y90.697 E3.71086
G1 X31.317 Y91.357 E3.77289
G1 X31.443 Y91.962 E3.82906
G1 X31.548 Y92.635 E3.89108
G1 X31.645 Y93.761 E3.99377
G1 X31.645 Y94.719 E4.08094
G1 X31.548 Y95.845 E4.18365
G1 X31.443 Y96.518 E4.24565
G1 X31.317 Y97.123 E4.30183
G1 X31.143 Y97.783 E4.36384
G1 X30.955 Y98.371 E4.42002
G1 X30.715 Y99.010 E4.48204
G1 X30.467 Y99.576 E4.53821
G1 X30.163 Y100.186 E4.60022
G1 X29.858 Y100.723 E4.65639
G1 X29.492 Y101.299 E4.71842
G1 X29.134 Y101.802 E4.77460
G1 X28.711 Y102.337 E4.83662
G1 X28.303 Y102.801 E4.89280
G1 X27.827 Y103.290 E4.95480
G1 X27.374 Y103.709 E5.01097
G1 X26.850 Y104.146 E5.07301
G1 X26.356 Y104.517 E5.12918
G1 X25.790 Y104.898 E5.19118
G1 X25.260 Y105.216 E5.24735
G1 X24.658 Y105.536 E5.30938
G1 X24.099 Y105.798 E5.36555
G1 X23.467 Y106.055 E5.42759
G1 X22.883 Y106.258 E5.48376
G1 X22.229 Y106.449 E5.54576
G1 X21.627 Y106.591 E5.60194
G1 X20.956 Y106.713 E5.66396
G1 X20.344 Y106.792 E5.72014
G1 X19.664 Y106.845 E5.78216
G1 X19.046 Y106.861 E5.83833
G1 X18.364 Y106.843 E5.90034
G1 X17.748 Y106.795 E5.95651
G1 X17.072 Y106.708 E6.01853
G1 X16.495 Y106.603 E6.07189
G1 X15.800 Y106.440 E6.13674
G1 X15.207 Y106.268 E6.19291
G1 X14.563 Y106.044 E6.25492
G1 X13.991 Y105.811 E6.31109
G1 X13.373 Y105.522 E6.37312
G1 X12.828 Y105.231 E6.42929
G1 X12.243 Y104.880 E6.49130
G1 X11.730 Y104.536 E6.54747
G1 X11.185 Y104.126 E6.60950
G1 X10.710 Y103.730 E6.66567
G1 X10.210 Y103.267 E6.72769
G1 X9.779 Y102.825 E6.78386
G1 X9.329 Y102.312 E6.84588
G1 X8.945 Y101.828 E6.90205
G1 X8.550 Y101.272 E6.96408
G1 X8.218 Y100.751 E7.02026
G1 X7.882 Y100.157 E7.08227
G1 X7.606 Y99.605 E7.13846
G1 X7.333 Y98.980 E7.20046
G1 X7.126 Y98.431 E7.25382
G1 X6.908 Y97.752 E7.31865
G1 X6.750 Y97.154 E7.37484
G1 X6.611 Y96.487 E7.43684
G1 X6.516 Y95.876 E7.49302
G1 X6.446 Y95.198 E7.55504
G1 X6.414 Y94.581 E7.61123
G1 X6.414 Y93.899 E7.67323
G1 X6.446 Y93.282 E7.72940
G1 X6.516 Y92.604 E7.79142
G1 X6.611 Y91.993 E7.84762
G1 X6.750 Y91.326 E7.90961
G1 X6.908 Y90.728 E7.96579
G1 X7.115 Y90.078 E8.02781
G1 X7.333 Y89.500 E8.08399
G1 X7.606 Y88.875 E8.14600
G1 X7.882 Y88.323 E8.20217
G1 X8.218 Y87.729 E8.26420
G1 X8.550 Y87.208 E8.32037
G1 X8.945 Y86.652 E8.38238
G1 X9.328 Y86.168 E8.43856
G1 X9.779 Y85.655 E8.50058
G1 X10.188 Y85.235 E8.55394
G1 X10.711 Y84.750 E8.61877
G1 X11.185 Y84.354 E8.67494
G1 X11.730 Y83.944 E8.73697
G1 X12.243 Y83.599 E8.79316
G1 X12.828 Y83.249 E8.85515
G1 X13.373 Y82.958 E8.91133
G1 X13.991 Y82.669 E8.97335
G1 X14.563 Y82.436 E9.02953
G1 X15.207 Y82.212 E9.09154
G1 X15.800 Y82.040 E9.14771
G1 X16.406 Y81.897 E9.20428
G1 E7.20428 F2400.00000
G92 E0
G1 X19.574 Y97.675 F7800.000
G1 E2.00000 F2400.00000
G1 X19.030 Y97.718 E2.04962 F1800.000
G1 X18.486 Y97.675 E2.09925
G1 X17.955 Y97.548 E2.14887
G1 X17.470 Y97.347 E2.19664
G1 X16.988 Y97.056 E2.24781
G1 X16.571 Y96.699 E2.29773
G1 X16.216 Y96.284 E2.34735
G1 X15.931 Y95.819 E2.39698
G1 X15.730 Y95.334 E2.44475
G1 X15.595 Y94.787 E2.49591
G1 X15.552 Y94.240 E2.54583
G1 X15.595 Y93.696 E2.59546
G1 X15.722 Y93.165 E2.64508
G1 X15.931 Y92.661 E2.69471
G1 X16.216 Y92.196 E2.74433
G1 X16.571 Y91.781 E2.79395
G1 X16.986 Y91.426 E2.84358
G1 X17.451 Y91.141 E2.89320
G1 X17.955 Y90.932 E2.94283
G1 X18.486 Y90.805 E2.99245
G1 X19.010 Y90.764 E3.04022 F1800.000
G1 X19.571 Y90.804 E3.09139
G1 X20.105 Y90.932 E3.14131
G1 X20.609 Y91.141 E3.19093
G1 X21.074 Y91.426 E3.24056
G1 X21.489 Y91.781 E3.29018
G1 X21.844 Y92.196 E3.33981
G1 X22.129 Y92.661 E3.38943
G1 X22.338 Y93.165 E3.43905
G1 X22.465 Y93.696 E3.48868
G1 X22.508 Y94.240 E3.53830
G1 X22.465 Y94.784 E3.58793
G1 X22.338 Y95.315 E3.63755
G1 X22.129 Y95.819 E3.68718
G1 X21.844 Y96.284 E3.73680
G1 X21.489 Y96.699 E3.78643
G1 X21.074 Y97.054 E3.83605
G1 X20.609 Y97.339 E3.88567
G1 X20.105 Y97.548 E3.93530
G1 X19.632 Y97.661 E3.97947
G1 X19.476 Y97.056 F7800.000
G1 X19.030 Y97.091 E4.02015 F1800.000
G1 X18.584 Y97.056 E4.06083
G1 X18.149 Y96.952 E4.10151
G1 X17.753 Y96.787 E4.14052
G1 X17.355 Y96.547 E4.18275
G1 X17.014 Y96.256 E4.22353
G1 X16.723 Y95.916 E4.26421
G1 X16.490 Y95.534 E4.30489
G1 X16.325 Y95.138 E4.34391
G1 X16.214 Y94.687 E4.38613
G1 X16.179 Y94.240 E4.42692
G1 X16.214 Y93.794 E4.46760
G1 X16.318 Y93.359 E4.50828
G1 X16.490 Y92.946 E4.54896
G1 X16.723 Y92.564 E4.58964
G1 X17.014 Y92.224 E4.63032
G1 X17.354 Y91.933 E4.67100
G1 X17.736 Y91.700 E4.71168
G1 X18.149 Y91.528 E4.75236
G1 X18.584 Y91.424 E4.79304
G1 X19.012 Y91.390 E4.83206 F1800.000
G1 X19.475 Y91.424 E4.87428
G1 X19.911 Y91.528 E4.91507
G1 X20.324 Y91.700 E4.95575
G1 X20.706 Y91.933 E4.99643
G1 X21.046 Y92.224 E5.03711
G1 X21.337 Y92.564 E5.07779
G1 X21.570 Y92.946 E5.11847
G1 X21.742 Y93.359 E5.15915
G1 X21.846 Y93.794 E5.19983
G1 X21.881 Y94.240 E5.24051
G1 X21.846 Y94.686 E5.28119
G1 X21.742 Y95.121 E5.32187
G1 X21.570 Y95.534 E5.36256
G1 X21.337 Y95.916 E5.40324
G1 X21.046 Y96.256 E5.44392
G1 X20.706 Y96.547 E5.48460
G1 X20.324 Y96.780 E5.52528
G1 X19.911 Y96.952 E5.56596
G1 X19.534 Y97.042 E5.60118
G1 X19.323 Y97.426 F7800.000
G1 X19.754 Y99.205 F7800.000
G1 X19.418 Y99.249 E5.63204 F1800.000
G1 X18.901 Y99.262 E5.67907
G1 X18.385 Y99.222 E5.72611
G1 X17.876 Y99.130 E5.77314
G1 X17.379 Y98.985 E5.82017
G1 X16.900 Y98.790 E5.86720
G1 X16.444 Y98.547 E5.91423
G1 X16.015 Y98.258 E5.96127
G1 X15.617 Y97.927 E6.00830
G1 X15.276 Y97.577 E6.05274
G1 X14.934 Y97.149 E6.10257
G1 X14.658 Y96.714 E6.14938
G1 X14.427 Y96.252 E6.19642
G1 X14.244 Y95.768 E6.24345
G1 X14.112 Y95.268 E6.29048
G1 X14.033 Y94.757 E6.33751
G1 X14.006 Y94.240 E6.38455
G1 X14.033 Y93.723 E6.43158
G1 X14.112 Y93.212 E6.47861
G1 X14.244 Y92.712 E6.52564
G1 X14.427 Y92.228 E6.57267
G1 X14.658 Y91.766 E6.61971
G1 X14.935 Y91.329 E6.66674
G1 X15.256 Y90.924 E6.71377
G1 X15.617 Y90.553 E6.76080
G1 X16.015 Y90.222 E6.80784
G1 X16.444 Y89.933 E6.85487
G1 X16.900 Y89.690 E6.90190
G1 X17.379 Y89.495 E6.94893
G1 X17.876 Y89.350 E6.99597
G1 X18.385 Y89.258 E7.04300
G1 X18.901 Y89.218 E7.09003
G1 X19.389 Y89.230 E7.13447
G1 X19.933 Y89.298 E7.18430 F1800.000
G1 X20.434 Y89.416 E7.23111
G1 X20.923 Y89.586 E7.27815
G1 X21.391 Y89.806 E7.32518
G1 X21.835 Y90.072 E7.37221
G1 X22.248 Y90.382 E7.41924
G1 X22.628 Y90.734 E7.46628
G1 X22.969 Y91.122 E7.51331
G1 X23.269 Y91.544 E7.56034
G1 X23.524 Y91.994 E7.60737
G1 X23.731 Y92.468 E7.65441
G1 X23.888 Y92.961 E7.70144
G1 X23.994 Y93.467 E7.74847
G1 X24.047 Y93.981 E7.79550
G1 X24.047 Y94.499 E7.84253
G1 X23.994 Y95.013 E7.88957
G1 X23.888 Y95.519 E7.93660
G1 X23.731 Y96.012 E7.98363
G1 X23.524 Y96.486 E8.03066
G1 X23.269 Y96.936 E8.07770
G1 X22.969 Y97.358 E8.12473
G1 X22.628 Y97.746 E8.17176
G1 X22.248 Y98.098 E8.21879
G1 X21.835 Y98.408 E8.26583
G1 X21.391 Y98.674 E8.31286
G1 X20.923 Y98.894 E8.35989
G1 X20.434 Y99.064 E8.40692
G1 X19.814 Y99.198 E8.46463
G1 X19.834 Y99.825 F7800.000
G1 X19.466 Y99.873 E8.49842 F1800.000
G1 X18.885 Y99.888 E8.55131
G1 X18.305 Y99.843 E8.60420
G1 X17.732 Y99.739 E8.65709
G1 X17.174 Y99.576 E8.70998
G1 X16.635 Y99.357 E8.76287
G1 X16.122 Y99.083 E8.81576
G1 X15.639 Y98.759 E8.86865
G1 X15.192 Y98.386 E8.92154
G1 X14.807 Y97.991 E8.97170
G1 X14.425 Y97.513 E9.02738
G1 X14.113 Y97.023 E9.08019
G1 X13.853 Y96.502 E9.13308
G1 X13.648 Y95.958 E9.18597
G1 X13.500 Y95.396 E9.23887
G1 X13.410 Y94.821 E9.29176
G1 X13.380 Y94.240 E9.34465
G1 X13.410 Y93.659 E9.39754
G1 X13.500 Y93.084 E9.45043
G1 X13.648 Y92.522 E9.50332
G1 X13.853 Y91.978 E9.55621
G1 X14.113 Y91.457 E9.60910
G1 X14.425 Y90.967 E9.66199
G1 X14.786 Y90.510 E9.71488
G1 X15.192 Y90.094 E9.76777
G1 X15.639 Y89.721 E9.82066
G1 X16.122 Y89.397 E9.87355
G1 X16.635 Y89.123 E9.92644
G1 X17.174 Y88.904 E9.97933
G1 X17.732 Y88.742 E10.03222
G1 X18.305 Y88.637 E10.08511
G1 X18.885 Y88.592 E10.13800
G1 X19.436 Y88.607 E10.18816
G1 X20.044 Y88.682 E10.24384 F1800.000
G1 X20.609 Y88.816 E10.29666
G1 X21.158 Y89.007 E10.34955
G1 X21.685 Y89.253 E10.40244
G1 X22.184 Y89.553 E10.45533
G1 X22.649 Y89.902 E10.50822
G1 X23.076 Y90.297 E10.56111
G1 X23.460 Y90.734 E10.61400
G1 X23.797 Y91.208 E10.66689
G1 X24.083 Y91.714 E10.71978
G1 X24.316 Y92.247 E10.77267
G1 X24.493 Y92.801 E10.82556
G1 X24.612 Y93.371 E10.87845
G1 X24.672 Y93.949 E10.93134
G1 X24.672 Y94.531 E10.98423
G1 X24.612 Y95.109 E11.03712
G1 X24.493 Y95.679 E11.09001
G1 X24.316 Y96.233 E11.14290
G1 X24.083 Y96.766 E11.19579
G1 X23.797 Y97.272 E11.24868
G1 X23.460 Y97.746 E11.30157
G1 X23.076 Y98.183 E11.35446
G1 X22.649 Y98.578 E11.40735
G1 X22.184 Y98.927 E11.46024
G1 X21.685 Y99.227 E11.51313
G1 X21.158 Y99.473 E11.56602
G1 X20.609 Y99.664 E11.61891
G1 X19.894 Y99.817 E11.68540
G1 X19.602 Y99.535 F7800.000
G1 X19.659 Y98.441 F7800.000
G1 X18.994 Y98.488 E11.81392 F1800.000
G1 X18.485 Y98.453 E11.91238
G1 X18.055 Y98.372 E11.99666
G1 X17.683 Y98.270 E12.07105
G1 X17.230 Y98.087 E12.16529
G1 X16.845 Y97.879 E12.24956
G1 X16.507 Y97.659 E12.32735
G1 X16.145 Y97.357 E12.41819
G1 X15.859 Y97.062 E12.49735
G1 X15.571 Y96.709 E12.58529
G1 X15.335 Y96.331 E12.67109
G1 X15.140 Y95.940 E12.75537
G1 X14.985 Y95.542 E12.83773
G1 X14.874 Y95.108 E12.92399
G1 X14.807 Y94.677 E13.00826
G1 X14.781 Y94.204 E13.09951
G1 X14.841 Y93.540 E13.22800 F1800.000
G1 X14.981 Y92.947 E13.34544
G1 X15.229 Y92.344 E13.47129
G1 X15.566 Y91.778 E13.59830
G1 X16.001 Y91.262 E13.72835
G1 X16.480 Y90.841 E13.85115
G1 X16.845 Y90.601 E13.93546
G1 X17.230 Y90.393 E14.01974
G1 X17.752 Y90.189 E14.12780
G1 X18.401 Y90.038 E14.25632
G1 X18.973 Y89.992 E14.36689
G1 X19.652 Y90.039 E14.49815
G1 X20.309 Y90.189 E14.62802
G1 X20.926 Y90.439 E14.75654
G1 X21.401 Y90.716 E14.86250
G1 X21.749 Y90.980 E14.94678
G1 X22.073 Y91.274 E15.03109
G1 X22.487 Y91.773 E15.15600
G1 X22.832 Y92.340 E15.28395
G1 X23.080 Y92.962 E15.41308
G1 X23.230 Y93.586 E15.53682
G1 X23.277 Y94.204 E15.65636
G1 X23.230 Y94.894 E15.78971
G1 X23.136 Y95.321 E15.87403
G1 X23.003 Y95.738 E15.95831
G1 X22.799 Y96.201 E16.05586
G1 X22.445 Y96.766 E16.18436
G1 X22.008 Y97.269 E16.31288
G1 X21.498 Y97.698 E16.44139
G1 X20.991 Y98.010 E16.55608
G1 X20.309 Y98.291 E16.69846
G1 X19.718 Y98.432 E16.81544
G1 Z0.350 F7800.000
M140 S50 ; wait for bed temperature to be reached
G1 Z0.650 F7800.000
G1 X19.577 Y97.696 F7800.000
G1 X19.030 Y97.739 E16.84412 F900.000
G1 X18.483 Y97.696 E16.87281
G1 X17.949 Y97.568 E16.90150
G1 X17.441 Y97.358 E16.93019
G1 X16.973 Y97.071 E16.95887
G1 X16.556 Y96.714 E16.98756
G1 X16.199 Y96.297 E17.01625
G1 X15.912 Y95.829 E17.04493
G1 X15.702 Y95.321 E17.07362
G1 X15.574 Y94.787 E17.10231
G1 X15.531 Y94.240 E17.13100
G1 X15.574 Y93.693 E17.15968
G1 X15.702 Y93.159 E17.18837
G1 X15.912 Y92.651 E17.21706
G1 X16.199 Y92.183 E17.24574
G1 X16.556 Y91.766 E17.27443
G1 X16.973 Y91.409 E17.30312
G1 X17.441 Y91.122 E17.33180
G1 X17.949 Y90.912 E17.36049
G1 X18.500 Y90.780 E17.39013
G1 X18.924 Y90.750 E17.41231 F900.000
G1 X19.562 Y90.780 E17.44572
G1 X20.111 Y90.912 E17.47521
G1 X20.619 Y91.122 E17.50389
G1 X21.087 Y91.409 E17.53258
G1 X21.504 Y91.766 E17.56127
G1 X21.861 Y92.183 E17.58995
G1 X22.148 Y92.651 E17.61864
G1 X22.370 Y93.187 E17.64895
G1 X22.487 Y93.698 E17.67632
G1 X22.529 Y94.240 E17.70472
G1 X22.486 Y94.787 E17.73341
G1 X22.358 Y95.321 E17.76209
G1 X22.148 Y95.829 E17.79078
G1 X21.861 Y96.297 E17.81947
G1 X21.504 Y96.714 E17.84816
G1 X21.087 Y97.071 E17.87684
G1 X20.619 Y97.358 E17.90553
G1 X20.111 Y97.568 E17.93422
G1 X19.636 Y97.682 E17.95977
G1 X19.512 Y97.281 F7800.000
G1 X19.030 Y97.319 E17.98501 F900.000
G1 X18.548 Y97.281 E18.01025
G1 X18.079 Y97.168 E18.03550
G1 X17.632 Y96.983 E18.06074
G1 X17.220 Y96.731 E18.08598
G1 X16.853 Y96.417 E18.11122
G1 X16.539 Y96.050 E18.13647
G1 X16.287 Y95.638 E18.16171
G1 X16.102 Y95.191 E18.18695
G1 X15.989 Y94.722 E18.21219
G1 X15.951 Y94.240 E18.23744
G1 X15.989 Y93.758 E18.26268
G1 X16.102 Y93.289 E18.28792
G1 X16.287 Y92.842 E18.31316
G1 X16.539 Y92.430 E18.33841
G1 X16.853 Y92.063 E18.36365
G1 X17.220 Y91.749 E18.38889
G1 X17.632 Y91.497 E18.41413
G1 X18.079 Y91.312 E18.43938
G1 X18.564 Y91.195 E18.46548
G1 X18.929 Y91.169 E18.48456 F900.000
G1 X19.503 Y91.197 E18.51460
G1 X19.981 Y91.312 E18.54031
G1 X20.428 Y91.497 E18.56555
G1 X20.840 Y91.749 E18.59079
G1 X21.207 Y92.063 E18.61604
G1 X21.521 Y92.430 E18.64128
G1 X21.773 Y92.842 E18.66652
G1 X21.969 Y93.315 E18.69327
G1 X22.071 Y93.761 E18.71719
G1 X22.109 Y94.240 E18.74227
G1 X22.071 Y94.722 E18.76751
G1 X21.958 Y95.191 E18.79275
G1 X21.773 Y95.638 E18.81799
G1 X21.521 Y96.050 E18.84324
G1 X21.207 Y96.417 E18.86848
G1 X20.840 Y96.731 E18.89372
G1 X20.428 Y96.983 E18.91896
G1 X19.981 Y97.168 E18.94421
G1 X19.570 Y97.267 E18.96631
G1 X19.452 Y96.907 F7800.000
G1 X19.030 Y96.941 E18.98405 F900.000
G1 X18.608 Y96.907 E19.00179
G1 X18.195 Y96.808 E19.01953
G1 X17.804 Y96.646 E19.03727
G1 X17.443 Y96.425 E19.05501
G1 X17.120 Y96.150 E19.07275
G1 X16.845 Y95.827 E19.09049
G1 X16.624 Y95.466 E19.10823
G1 X16.462 Y95.075 E19.12597
G1 X16.363 Y94.662 E19.14371
G1 X16.329 Y94.240 E19.16145
G1 X16.363 Y93.818 E19.17919
G1 X16.462 Y93.405 E19.19693
G1 X16.624 Y93.014 E19.21467
G1 X16.845 Y92.653 E19.23241
G1 X17.120 Y92.330 E19.25014
G1 X17.443 Y92.055 E19.26788
G1 X17.804 Y91.834 E19.28562
G1 X18.195 Y91.672 E19.30336
G1 X18.622 Y91.569 E19.32173
G1 X18.933 Y91.547 E19.33477 F900.000
G1 X19.449 Y91.572 E19.35642
G1 X19.865 Y91.672 E19.37429
G1 X20.256 Y91.834 E19.39203
G1 X20.617 Y92.055 E19.40977
G1 X20.940 Y92.330 E19.42751
G1 X21.215 Y92.653 E19.44525
G1 X21.436 Y93.014 E19.46299
G1 X21.609 Y93.430 E19.48185
G1 X21.697 Y93.819 E19.49853
G1 X21.731 Y94.240 E19.51622
G1 X21.697 Y94.662 E19.53396
G1 X21.598 Y95.075 E19.55170
G1 X21.436 Y95.466 E19.56944
G1 X21.215 Y95.827 E19.58718
G1 X20.940 Y96.150 E19.60492
G1 X20.617 Y96.425 E19.62265
G1 X20.256 Y96.646 E19.64039
G1 X19.865 Y96.808 E19.65813
G1 X19.511 Y96.893 E19.67336
G1 X19.299 Y97.277 F7800.000
G1 X19.747 Y99.185 F7800.000
G1 X19.416 Y99.228 E19.69081 F900.000
G1 X18.901 Y99.241 E19.71772
G1 X18.388 Y99.201 E19.74463
G1 X17.881 Y99.109 E19.77154
G1 X17.386 Y98.965 E19.79845
G1 X16.909 Y98.771 E19.82536
G1 X16.455 Y98.529 E19.85226
G1 X16.027 Y98.241 E19.87917
G1 X15.632 Y97.911 E19.90608
G1 X15.272 Y97.542 E19.93299
G1 X14.953 Y97.139 E19.95990
G1 X14.676 Y96.704 E19.98681
G1 X14.446 Y96.243 E20.01372
G1 X14.264 Y95.761 E20.04063
G1 X14.133 Y95.263 E20.06753
G1 X14.054 Y94.754 E20.09444
G1 X14.027 Y94.240 E20.12135
G1 X14.054 Y93.726 E20.14826
G1 X14.133 Y93.217 E20.17517
G1 X14.264 Y92.719 E20.20208
G1 X14.446 Y92.237 E20.22899
G1 X14.676 Y91.776 E20.25590
G1 X14.953 Y91.341 E20.28280
G1 X15.272 Y90.938 E20.30971
