; generated by Slic3r 1.3.1-dev on 2020-02-13 at 10:29:55

; external perimeters extrusion width = 0.44mm (1.26mm^3/s)
; perimeters extrusion width = 0.56mm (3.23mm^3/s)
; infill extrusion width = 0.50mm (3.83mm^3/s)
; solid infill extrusion width = 0.56mm (1.08mm^3/s)
; top infill extrusion width = 0.56mm (0.81mm^3/s)
; support material extrusion width = 0.44mm (2.51mm^3/s)

M107
M190 S65 ; set bed temperature and wait for it to be reached
M104 S210 ; set temperature
G28 ; home all axes
G1 Z5 F5000 ; lift nozzle

; Filament gcode

M109 S210 ; set temperature and wait for it to be reached
G21 ; set units to millimeters
G90 ; use absolute coordinates
M82 ; use absolute distances for extrusion
G92 E0
G92 E0
G1 Z0.350 F7800.000
G1 E-2.00000 F2400.00000
G92 E0
G1 X19.377 Y68.578 F7800.000
G1 E2.00000 F2400.00000
G1 F1800
G1 X20.019 Y68.412 E2.06029
G1 X21.146 Y68.186 E2.16477
G1 X22.686 Y68.018 E2.30564
G1 X23.161 Y68.001 E2.34883
G1 X24.535 Y68.017 E2.47383
G1 X25.674 Y68.129 E2.57786
G1 X26.336 Y68.230 E2.63881
G1 X27.428 Y68.459 E2.74023
G1 X28.683 Y68.834 E2.85938
G1 X29.381 Y69.090 E2.92695
G1 X30.225 Y69.453 E3.01045
G1 X30.866 Y69.768 E3.07543
G1 X32.045 Y70.444 E3.19896
G1 X33.338 Y71.362 E3.34316
G1 X34.435 Y72.312 E3.47511
G1 X35.367 Y73.282 E3.59744
G1 X35.737 Y73.719 E3.64957
G1 X36.299 Y74.446 E3.73308
G1 X36.602 Y74.869 E3.78044
G1 X37.283 Y75.968 E3.89796
G1 X37.512 Y76.395 E3.94206
G1 X38.030 Y77.473 E4.05078
G1 X38.471 Y78.632 E4.16349
G1 X38.685 Y79.309 E4.22810
G1 X39.008 Y80.618 E4.35067
G1 X39.233 Y82.135 E4.49015
G1 X39.310 Y83.680 E4.63079
G1 X39.254 Y84.964 E4.74771
G1 X39.209 Y85.450 E4.79205
G1 X38.970 Y86.926 E4.92796
G1 X38.569 Y88.440 E5.07045
G1 X38.042 Y89.860 E5.20818
G1 X37.370 Y91.237 E5.34744
G1 X36.681 Y92.366 E5.46773
G1 X36.421 Y92.752 E5.51003
G1 X35.722 Y93.658 E5.61412
G1 X35.421 Y94.017 E5.65672
G1 X34.427 Y95.055 E5.78736
G1 X33.251 Y96.066 E5.92844
G1 X32.200 Y96.811 E6.04556
G1 X31.766 Y97.088 E6.09239
G1 X30.821 Y97.615 E6.19070
G1 X30.312 Y97.868 E6.24246
G1 X29.064 Y98.395 E6.36564
G1 X27.657 Y98.841 E6.49985
G1 X26.326 Y99.130 E6.62366
G1 X25.775 Y99.219 E6.67443
G1 X24.427 Y99.349 E6.79760
G1 X22.845 Y99.351 E6.94143
G1 X21.333 Y99.202 E7.07958
G1 X20.012 Y98.945 E7.20199
G1 X19.563 Y98.836 E7.24393
G1 X18.158 Y98.389 E7.37805
G1 X16.646 Y97.735 E7.52780
G1 X15.632 Y97.180 E7.63294
G1 X15.036 Y96.808 E7.69678
G1 X14.193 Y96.220 E7.79024
G1 X13.795 Y95.910 E7.83612
G1 X13.053 Y95.272 E7.92512
G1 X12.607 Y94.853 E7.98079
G1 X11.818 Y94.017 E8.08530
G1 X10.989 Y92.980 E8.20601
G1 X10.556 Y92.362 E8.27460
G1 X10.006 Y91.477 E8.36933
G1 X9.730 Y90.967 E8.42209
G1 X9.132 Y89.703 E8.54925
G1 X8.749 Y88.667 E8.64970
G1 X8.542 Y88.005 E8.71277
G1 X8.245 Y86.811 E8.82460
G1 X8.051 Y85.597 E8.93639
G1 X7.995 Y85.105 E8.98141
G1 X7.930 Y83.615 E9.11709
G1 X8.022 Y81.993 E9.26475
G1 X8.247 Y80.540 E9.39847
G1 X8.623 Y79.067 E9.53674
G1 X9.078 Y77.799 E9.65919
G1 X9.246 Y77.390 E9.69943
G1 X9.957 Y75.968 E9.84398
G1 X10.738 Y74.721 E9.97782
G1 X11.687 Y73.492 E10.11897
G1 X12.574 Y72.543 E10.23705
G1 X12.923 Y72.202 E10.28150
G1 X13.749 Y71.489 E10.38065
G1 X14.163 Y71.162 E10.42863
G1 X15.304 Y70.374 E10.55478
G1 X16.655 Y69.620 E10.69546
G1 X17.859 Y69.090 E10.81501
G1 X18.359 Y68.899 E10.86368
G1 X19.320 Y68.596 E10.95533
G1 E8.95533 F2400.00000
G92 E0
G1 X24.246 Y87.231 F7800.000
G1 E2.00000 F2400.00000
G1 F1800
G1 X23.620 Y87.285 E2.05715
G1 X22.994 Y87.231 E2.11430
G1 X22.386 Y87.068 E2.17146
G1 X21.817 Y86.802 E2.22861
G1 X21.316 Y86.452 E2.28423
G1 X20.860 Y86.001 E2.34247
G1 X20.497 Y85.483 E2.40006
G1 X20.231 Y84.913 E2.45721
G1 X20.069 Y84.306 E2.51436
G1 X20.014 Y83.680 E2.57152
G1 X20.069 Y83.053 E2.62867
G1 X20.231 Y82.446 E2.68583
G1 X20.497 Y81.877 E2.74298
G1 X20.858 Y81.362 E2.80013
G1 X21.302 Y80.917 E2.85729
G1 X21.817 Y80.557 E2.91444
G1 X22.387 Y80.291 E2.97159
G1 X22.994 Y80.129 E3.02874
G1 X23.603 Y80.075 E3.08437
G1 X24.241 Y80.127 E3.14261
G1 X24.853 Y80.291 E3.20019
G1 X25.423 Y80.557 E3.25734
G1 X25.938 Y80.917 E3.31450
G1 X26.382 Y81.362 E3.37165
G1 X26.743 Y81.877 E3.42881
G1 X27.008 Y82.446 E3.48596
G1 X27.171 Y83.053 E3.54311
G1 X27.226 Y83.680 E3.60027
G1 X27.171 Y84.306 E3.65742
G1 X27.008 Y84.913 E3.71457
G1 X26.743 Y85.483 E3.77172
G1 X26.382 Y85.997 E3.82888
G1 X25.938 Y86.442 E3.88604
G1 X25.423 Y86.802 E3.94318
G1 X24.853 Y87.068 E4.00034
G1 X24.304 Y87.215 E4.05204
G1 X24.137 Y86.613 F7800.000
G1 F1800
G1 X23.620 Y86.658 E4.09925
G1 X23.103 Y86.613 E4.14646
G1 X22.601 Y86.479 E4.19367
G1 X22.130 Y86.259 E4.24089
G1 X21.717 Y85.970 E4.28673
G1 X21.340 Y85.597 E4.33503
G1 X21.040 Y85.169 E4.38250
G1 X20.821 Y84.698 E4.42971
G1 X20.686 Y84.197 E4.47692
G1 X20.641 Y83.680 E4.52414
G1 X20.686 Y83.162 E4.57135
G1 X20.821 Y82.661 E4.61856
G1 X21.040 Y82.190 E4.66577
G1 X21.338 Y81.765 E4.71298
G1 X21.705 Y81.398 E4.76019
G1 X22.131 Y81.100 E4.80740
G1 X22.601 Y80.881 E4.85462
G1 X23.103 Y80.746 E4.90182
G1 X23.605 Y80.702 E4.94767
G1 X24.134 Y80.746 E4.99597
G1 X24.639 Y80.881 E5.04344
G1 X25.109 Y81.100 E5.09065
G1 X25.534 Y81.398 E5.13787
G1 X25.902 Y81.765 E5.18508
G1 X26.199 Y82.190 E5.23229
G1 X26.419 Y82.661 E5.27950
G1 X26.553 Y83.162 E5.32671
G1 X26.598 Y83.680 E5.37392
G1 X26.553 Y84.197 E5.42113
G1 X26.419 Y84.698 E5.46834
G1 X26.199 Y85.169 E5.51555
G1 X25.902 Y85.594 E5.56277
G1 X25.534 Y85.961 E5.60998
G1 X25.109 Y86.259 E5.65719
G1 X24.639 Y86.479 E5.70440
G1 X24.195 Y86.597 E5.74616
G1 X24.028 Y85.995 F7800.000
G1 F1800
G1 X23.620 Y86.031 E5.78342
G1 X23.212 Y85.995 E5.82069
G1 X22.816 Y85.889 E5.85796
G1 X22.444 Y85.716 E5.89523
G1 X22.119 Y85.488 E5.93130
G1 X21.819 Y85.192 E5.96966
G1 X21.583 Y84.855 E6.00702
G1 X21.410 Y84.484 E6.04429
G1 X21.304 Y84.088 E6.08156
G1 X21.268 Y83.680 E6.11883
G1 X21.304 Y83.271 E6.15610
G1 X21.410 Y82.875 E6.19337
G1 X21.583 Y82.504 E6.23064
G1 X21.819 Y82.168 E6.26790
G1 X22.108 Y81.878 E6.30517
G1 X22.444 Y81.643 E6.34244
G1 X22.816 Y81.470 E6.37971
G1 X23.211 Y81.364 E6.41698
G1 X23.607 Y81.329 E6.45305
G1 X24.027 Y81.364 E6.49141
G1 X24.424 Y81.470 E6.52877
G1 X24.795 Y81.643 E6.56604
G1 X25.131 Y81.878 E6.60331
G1 X25.421 Y82.168 E6.64058
G1 X25.656 Y82.504 E6.67784
G1 X25.829 Y82.875 E6.71511
G1 X25.935 Y83.271 E6.75238
G1 X25.971 Y83.680 E6.78965
G1 X25.935 Y84.088 E6.82692
G1 X25.829 Y84.484 E6.86419
G1 X25.656 Y84.855 E6.90146
G1 X25.421 Y85.191 E6.93873
G1 X25.131 Y85.481 E6.97600
G1 X24.795 Y85.716 E7.01326
G1 X24.424 Y85.889 E7.05053
G1 X24.086 Y85.980 E7.08235
G1 X24.028 Y85.995 F7800.000
G1 E5.08235 F2400.00000
G92 E0
G1 X25.056 Y90.994 F7800.000
G1 E2.00000 F2400.00000
G1 F1800
G1 X24.751 Y91.057 E2.02831
G1 X23.987 Y91.134 E2.09807
G1 X23.238 Y91.134 E2.16622
G1 X22.490 Y91.057 E2.23459
G1 X21.749 Y90.905 E2.30335
G1 X21.028 Y90.679 E2.37208
G1 X20.328 Y90.378 E2.44133
G1 X19.672 Y90.014 E2.50955
G1 X19.051 Y89.582 E2.57835
G1 X18.478 Y89.090 E2.64702
G1 X17.957 Y88.541 E2.71585
G1 X17.493 Y87.943 E2.78467
G1 X17.094 Y87.302 E2.85334
G1 X16.761 Y86.624 E2.92198
G1 X16.499 Y85.913 E2.99084
G1 X16.309 Y85.183 E3.05949
G1 X16.198 Y84.464 E3.12561
G1 X16.159 Y83.585 E3.20559
G1 X16.203 Y82.857 E3.27194
G1 X16.309 Y82.174 E3.33483
G1 X16.498 Y81.445 E3.40325
G1 X16.761 Y80.737 E3.47192
G1 X17.095 Y80.058 E3.54076
G1 X17.494 Y79.415 E3.60959
G1 X17.957 Y78.818 E3.67825
G1 X18.478 Y78.269 E3.74706
G1 X19.039 Y77.787 E3.81429
G1 X19.673 Y77.345 E3.88458
G1 X20.333 Y76.979 E3.95324
G1 X21.028 Y76.681 E4.02199
G1 X21.749 Y76.454 E4.09070
G1 X22.499 Y76.301 E4.16033
G1 X23.236 Y76.226 E4.22773
G1 X24.027 Y76.227 E4.29960
G1 X24.749 Y76.302 E4.36567
G1 X25.485 Y76.453 E4.43396
G1 X26.212 Y76.681 E4.50326
G1 X26.907 Y76.979 E4.57197
G1 X27.567 Y77.345 E4.64065
G1 X28.201 Y77.787 E4.71093
G1 X28.762 Y78.269 E4.77816
G1 X29.283 Y78.818 E4.84695
G1 X29.747 Y79.417 E4.91590
G1 X30.164 Y80.091 E4.98788
G1 X30.479 Y80.736 E5.05322
G1 X30.741 Y81.445 E5.12195
G1 X30.930 Y82.174 E5.19037
G1 X31.050 Y82.984 E5.26487
G1 X31.084 Y83.679 E5.32811
G1 X31.048 Y84.397 E5.39347
G1 X30.912 Y85.263 E5.47318
G1 X30.741 Y85.912 E5.53420
G1 X30.478 Y86.624 E5.60325
G1 X30.146 Y87.302 E5.67189
G1 X29.746 Y87.943 E5.74057
G1 X29.282 Y88.541 E5.80938
G1 X28.760 Y89.091 E5.87838
G1 X28.188 Y89.582 E5.94687
G1 X27.568 Y90.014 E6.01565
G1 X26.911 Y90.378 E6.08391
G1 X26.212 Y90.679 E6.15315
G1 X25.491 Y90.905 E6.22188
G1 X25.114 Y90.982 E6.25680
G1 X25.181 Y91.607 F7800.000
G1 F1800
G1 X24.845 Y91.676 E6.28802
G1 X24.019 Y91.759 E6.36356
G1 X23.206 Y91.758 E6.43746
G1 X22.395 Y91.676 E6.51157
G1 X21.592 Y91.511 E6.58609
G1 X20.810 Y91.266 E6.66060
G1 X20.052 Y90.940 E6.73561
G1 X19.341 Y90.545 E6.80959
G1 X18.668 Y90.077 E6.88415
G1 X18.047 Y89.543 E6.95861
G1 X17.483 Y88.948 E7.03317
G1 X16.980 Y88.300 E7.10772
G1 X16.547 Y87.605 E7.18218
G1 X16.186 Y86.870 E7.25663
G1 X15.903 Y86.101 E7.33121
G1 X15.696 Y85.310 E7.40555
G1 X15.575 Y84.526 E7.47766
G1 X15.534 Y83.581 E7.56369
G1 X15.581 Y82.790 E7.63570
G1 X15.697 Y82.047 E7.70412
G1 X15.901 Y81.258 E7.77821
G1 X16.186 Y80.490 E7.85267
G1 X16.548 Y79.754 E7.92724
G1 X16.981 Y79.058 E8.00180
G1 X17.482 Y78.410 E8.07626
G1 X18.047 Y77.816 E8.15080
G1 X18.655 Y77.293 E8.22377
G1 X19.341 Y76.814 E8.29984
G1 X20.057 Y76.417 E8.37430
G1 X20.810 Y76.094 E8.44881
G1 X21.592 Y75.849 E8.52330
G1 X22.404 Y75.682 E8.59870
G1 X23.205 Y75.601 E8.67191
G1 X24.059 Y75.603 E8.74956
G1 X24.844 Y75.683 E8.82133
G1 X25.642 Y75.847 E8.89534
G1 X26.429 Y76.094 E8.97041
G1 X27.182 Y76.417 E9.04490
G1 X27.898 Y76.814 E9.11937
G1 X28.585 Y77.293 E9.19544
G1 X29.193 Y77.816 E9.26840
G1 X29.758 Y78.410 E9.34294
G1 X30.261 Y79.061 E9.41773
G1 X30.711 Y79.788 E9.49552
G1 X31.054 Y80.490 E9.56655
G1 X31.338 Y81.258 E9.64099
G1 X31.543 Y82.049 E9.71530
G1 X31.673 Y82.923 E9.79563
G1 X31.709 Y83.679 E9.86447
G1 X31.670 Y84.461 E9.93564
G1 X31.524 Y85.391 E10.02127
G1 X31.337 Y86.100 E10.08790
G1 X31.053 Y86.870 E10.16259
G1 X30.693 Y87.605 E10.23704
G1 X30.260 Y88.300 E10.31150
G1 X29.757 Y88.948 E10.38605
G1 X29.191 Y89.544 E10.46079
G1 X28.571 Y90.077 E10.53507
G1 X27.899 Y90.545 E10.60960
G1 X27.187 Y90.940 E10.68361
G1 X26.429 Y91.266 E10.75862
G1 X25.647 Y91.511 E10.83313
G1 X25.240 Y91.594 E10.87093
G1 X25.307 Y92.219 F7800.000
G1 F1800
G1 X24.940 Y92.294 E10.90505
G1 X24.050 Y92.384 E10.98638
G1 X23.174 Y92.383 E11.06603
G1 X22.300 Y92.294 E11.14588
G1 X21.435 Y92.117 E11.22615
G1 X20.593 Y91.852 E11.30643
G1 X19.777 Y91.502 E11.38722
G1 X19.010 Y91.076 E11.46695
G1 X18.285 Y90.571 E11.54726
G1 X17.616 Y89.996 E11.62752
G1 X17.008 Y89.356 E11.70781
G1 X16.467 Y88.658 E11.78810
G1 X16.000 Y87.909 E11.86835
G1 X15.611 Y87.117 E11.94860
G1 X15.306 Y86.288 E12.02890
G1 X15.084 Y85.436 E12.10894
G1 X14.953 Y84.588 E12.18704
G1 X14.908 Y83.576 E12.27911
G1 X14.959 Y82.723 E12.35678
G1 X15.084 Y81.920 E12.43072
G1 X15.304 Y81.071 E12.51049
G1 X15.611 Y80.243 E12.59075
G1 X16.001 Y79.451 E12.67104
G1 X16.467 Y78.701 E12.75132
G1 X17.007 Y78.003 E12.83159
G1 X17.615 Y77.363 E12.91187
G1 X18.272 Y76.799 E12.99056
G1 X19.010 Y76.283 E13.07243
G1 X19.782 Y75.855 E13.15268
G1 X20.593 Y75.507 E13.23295
G1 X21.435 Y75.243 E13.31323
G1 X22.310 Y75.064 E13.39440
G1 X23.174 Y74.976 E13.47341
G1 X24.092 Y74.978 E13.55685
G1 X24.939 Y75.065 E13.63432
G1 X25.798 Y75.241 E13.71405
G1 X26.647 Y75.507 E13.79489
G1 X27.458 Y75.855 E13.87515
G1 X28.230 Y76.283 E13.95541
G1 X28.968 Y76.799 E14.03727
G1 X29.624 Y77.363 E14.11596
G1 X30.232 Y78.003 E14.19625
G1 X30.775 Y78.704 E14.27689
G1 X31.259 Y79.486 E14.36049
G1 X31.629 Y80.244 E14.43720
G1 X31.935 Y81.071 E14.51735
G1 X32.156 Y81.924 E14.59755
G1 X32.296 Y82.862 E14.68372
G1 X32.335 Y83.680 E14.75816
G1 X32.293 Y84.525 E14.83514
G1 X32.137 Y85.520 E14.92667
G1 X31.934 Y86.288 E14.99891
G1 X31.629 Y87.117 E15.07925
G1 X31.240 Y87.909 E15.15950
G1 X30.773 Y88.658 E15.23975
G1 X30.232 Y89.356 E15.32004
G1 X29.623 Y89.998 E15.40052
G1 X28.954 Y90.571 E15.48059
G1 X28.230 Y91.076 E15.56087
G1 X27.463 Y91.502 E15.64063
G1 X26.647 Y91.852 E15.72142
G1 X25.804 Y92.117 E15.80170
G1 X25.366 Y92.207 E15.84238
G1 X25.052 Y91.944 F7800.000
G1 E13.84238 F2400.00000
G92 E0
G1 X21.971 Y90.393 F7800.000
G1 E2.00000 F2400.00000
G1 F1800
G1 X24.639 Y87.724 E2.35755
G1 X24.421 Y87.782 E2.37895
G1 X23.686 Y87.846 E2.44885
G1 X23.603 Y87.839 E2.45674
G1 X21.259 Y90.183 E2.77080
G1 X21.179 Y90.158 E2.77874
G1 X20.608 Y89.913 E2.83756
G1 X22.784 Y87.737 E3.12906
G1 X22.238 Y87.591 E3.18261
G1 X22.082 Y87.519 E3.19889
G1 X20.011 Y89.590 E3.47644
G1 X19.462 Y89.219 E3.53925
G1 X21.470 Y87.210 E3.80835
G1 X20.936 Y86.823 E3.87081
G1 X18.958 Y88.802 E4.13583
G1 X18.499 Y88.340 E4.19750
G1 X20.473 Y86.366 E4.46200
G1 X20.089 Y85.829 E4.52452
G1 X18.083 Y87.835 E4.79330
G1 X17.940 Y87.651 E4.81535
G1 X17.712 Y87.285 E4.85620
G1 X19.781 Y85.217 E5.13332
G1 X19.708 Y85.061 E5.14958
G1 X19.562 Y84.515 E5.20315
G1 X17.390 Y86.687 E5.49416
G1 X17.270 Y86.444 E5.51983
G1 X17.120 Y86.036 E5.56100
G1 X19.460 Y83.696 E5.87451
G1 X19.453 Y83.613 E5.88238
G1 X19.517 Y82.878 E5.95228
G1 X19.576 Y82.660 E5.97370
G1 X16.909 Y85.327 E6.33101
G1 X16.855 Y85.122 E6.35102
G1 X16.767 Y84.548 E6.40607
G1 E4.40607 F2400.00000
G92 E0
G1 X18.844 Y78.788 F7800.000
G1 E2.00000 F2400.00000
G1 F1800
G1 X19.488 Y78.215 E2.08164
G1 X20.070 Y77.810 E2.14883
G1 X20.675 Y77.474 E2.21434
G1 X21.371 Y77.182 E2.28582
G1 X17.132 Y81.421 E2.85366
G1 X17.029 Y81.699 E2.88178
G1 X16.856 Y82.367 E2.94713
G1 X16.809 Y82.664 E2.97563
G1 X22.611 Y76.863 E3.75285
G1 X23.333 Y76.784 E3.82171
G1 X23.609 Y76.785 E3.84783
G1 X16.720 Y83.675 E4.77084
G1 X16.767 Y84.548 E4.85370
G1 X24.485 Y76.830 E5.88773
G1 X24.721 Y76.854 E5.91016
G1 X25.269 Y76.966 E5.96320
G1 X22.600 Y79.636 E6.32079
G1 X22.818 Y79.577 E6.34221
G1 X23.535 Y79.514 E6.41034
G1 X23.634 Y79.522 E6.41975
G1 X25.980 Y77.176 E6.73413
G1 X26.631 Y77.446 E6.80087
G1 X24.455 Y79.622 E7.09240
G1 X25.001 Y79.768 E7.14596
G1 X25.157 Y79.841 E7.16223
G1 X27.229 Y77.769 E7.43978
G1 X27.777 Y78.141 E7.50257
G1 X25.769 Y80.149 E7.77160
G1 X26.305 Y80.534 E7.83410
G1 X28.282 Y78.557 E8.09887
G1 X28.741 Y79.019 E8.16054
G1 X26.766 Y80.994 E8.42519
G1 X27.150 Y81.530 E8.48769
G1 X29.157 Y79.524 E8.75650
G1 X29.299 Y79.708 E8.77854
G1 X29.526 Y80.075 E8.81943
G1 X27.459 Y82.142 E9.09641
G1 X27.531 Y82.298 E9.11269
G1 X27.678 Y82.844 E9.16624
G1 X29.850 Y80.671 E9.45732
G1 X29.970 Y80.916 E9.48312
G1 X30.120 Y81.322 E9.52414
G1 X27.779 Y83.663 E9.83773
G1 X27.787 Y83.746 E9.84562
G1 X27.722 Y84.481 E9.91552
G1 X27.664 Y84.699 E9.93692
G1 X30.331 Y82.032 E10.29425
G1 X30.383 Y82.232 E10.31381
G1 X30.469 Y82.814 E10.36960
G1 X22.754 Y90.529 E11.40317
G1 X23.204 Y90.575 E11.44594
G1 X23.629 Y90.575 E11.48624
G1 X30.521 Y83.684 E12.40953
G1 X30.492 Y84.266 E12.46477
G1 X30.423 Y84.702 E12.50656
G1 X24.628 Y90.497 E13.28295
G1 X25.267 Y90.366 E13.34479
G1 X25.869 Y90.177 E13.40449
G1 X30.106 Y85.939 E13.97222
G1 X29.969 Y86.311 E14.00979
G1 X29.665 Y86.932 E14.07525
G1 X29.299 Y87.519 E14.14076
G1 X28.874 Y88.067 E14.20647
G1 X28.262 Y88.705 E14.29026
G1 Z0.350 F7800.000
M140 S50 ; set bed temperature
G1 Z0.450 F7800.000
G1 X24.183 Y86.872 F7800.000
G1 F900
G1 X23.620 Y86.921 E14.30291
G1 X23.057 Y86.872 E14.31556
G1 X22.511 Y86.726 E14.32821
G1 X21.999 Y86.487 E14.34087
G1 X21.536 Y86.163 E14.35352
G1 X21.136 Y85.763 E14.36617
G1 X20.812 Y85.301 E14.37882
G1 X20.574 Y84.788 E14.39147
G1 X20.427 Y84.243 E14.40413
G1 X20.378 Y83.680 E14.41678
G1 X20.427 Y83.117 E14.42943
G1 X20.574 Y82.571 E14.44208
G1 X20.812 Y82.059 E14.45474
G1 X21.136 Y81.596 E14.46739
G1 X21.536 Y81.196 E14.48004
G1 X21.999 Y80.872 E14.49269
G1 X22.511 Y80.633 E14.50534
G1 X23.057 Y80.487 E14.51800
G1 X23.584 Y80.441 E14.52985
G1 X24.175 Y80.485 E14.54311
G1 X24.729 Y80.633 E14.55594
G1 X25.241 Y80.872 E14.56860
G1 X25.704 Y81.196 E14.58125
G1 X26.103 Y81.596 E14.59390
G1 X26.427 Y82.059 E14.60655
G1 X26.666 Y82.571 E14.61921
G1 X26.812 Y83.117 E14.63186
G1 X26.862 Y83.680 E14.64451
