; generated by Slic3r 1.3.1-dev on 2020-02-13 at 10:57:04

; external perimeters extrusion width = 0.44mm (1.26mm^3/s)
; perimeters extrusion width = 0.56mm (3.23mm^3/s)
; infill extrusion width = 0.50mm (3.83mm^3/s)
; solid infill extrusion width = 0.56mm (1.08mm^3/s)
; top infill extrusion width = 0.56mm (0.81mm^3/s)
; support material extrusion width = 0.44mm (2.51mm^3/s)

M107
M190 S65 ; set bed temperature and wait for it to be reached
M104 S210 ; set temperature
G28 ; home all axes
G1 Z5 F5000 ; lift nozzle

; Filament gcode

M109 S210 ; set temperature and wait for it to be reached
G21 ; set units to millimeters
G90 ; use absolute coordinates
M82 ; use absolute distances for extrusion
G92 E0
G92 E0
G1 Z0.350 F7800.000
G1 E-2.00000 F2400.00000
G92 E0
G1 X21.451 Y74.970 F7800.000
G1 E2.00000 F2400.00000
G1 F1800
G1 X24.420 Y74.339 E2.27598
G1 X25.797 Y74.194 E2.40192
G1 X26.371 Y74.194 E2.45408
G1 X27.748 Y74.339 E2.58002
G1 X30.717 Y74.970 E2.85600
G1 X32.034 Y75.398 E2.98194
G1 X32.558 Y75.631 E3.03410
G1 X33.757 Y76.324 E3.16003
G1 X36.213 Y78.108 E3.43601
G1 X37.221 Y79.011 E3.55912
G1 X37.746 Y79.598 E3.63067
G1 X38.440 Y80.581 E3.74014
G1 X39.958 Y83.210 E4.01612
G1 X40.497 Y84.402 E4.13515
G1 X40.741 Y85.157 E4.20726
G1 X40.986 Y86.375 E4.32025
G1 X41.303 Y89.394 E4.59624
G1 X41.315 Y90.658 E4.71124
G1 X41.232 Y91.447 E4.78337
G1 X40.956 Y92.704 E4.90037
G1 X40.018 Y95.591 E5.17635
G1 X39.535 Y96.711 E5.28730
G1 X39.158 Y97.370 E5.35633
G1 X38.353 Y98.473 E5.48047
G1 X36.323 Y100.729 E5.75645
G1 X35.461 Y101.529 E5.86342
G1 X34.864 Y101.967 E5.93075
G1 X33.630 Y102.685 E6.06055
G1 X30.857 Y103.919 E6.33653
G1 X29.540 Y104.347 E6.46247
G1 X28.979 Y104.467 E6.51463
G1 X27.601 Y104.611 E6.64056
G1 X24.566 Y104.611 E6.91655
G1 X23.189 Y104.467 E7.04248
G1 X22.628 Y104.347 E7.09464
G1 X21.311 Y103.919 E7.22058
G1 X18.538 Y102.685 E7.49656
G1 X17.346 Y101.998 E7.62167
G1 X16.706 Y101.529 E7.69383
G1 X15.845 Y100.729 E7.80069
G1 X13.814 Y98.473 E8.07667
G1 X13.027 Y97.399 E8.19776
G1 X12.632 Y96.711 E8.26992
G1 X12.150 Y95.591 E8.38080
G1 X11.212 Y92.704 E8.65678
G1 X10.935 Y91.447 E8.77380
G1 X10.866 Y90.799 E8.83310
G1 X10.853 Y90.658 E8.84595
G1 X10.864 Y89.394 E8.96092
G1 X11.181 Y86.375 E9.23690
G1 X11.426 Y85.158 E9.34982
G1 X11.671 Y84.402 E9.42201
G1 X12.210 Y83.210 E9.54103
G1 X13.727 Y80.581 E9.81701
G1 X14.417 Y79.603 E9.92589
G1 X14.947 Y79.011 E9.99806
G1 X15.955 Y78.108 E10.12114
G1 X18.410 Y76.324 E10.39712
G1 X19.610 Y75.631 E10.52306
G1 X20.134 Y75.398 E10.57523
G1 X21.394 Y74.988 E10.69570
G1 Z0.350 F7800.000
G1 E8.69570 F2400.00000
G92 E0
G1 X24.834 Y83.478 F7800.000
G1 E2.00000 F2400.00000
G1 F1800
G1 X24.788 Y83.488 E2.00431
G1 X24.788 Y89.333 E2.53583
G1 X24.834 Y89.098 E2.55765
G1 X24.834 Y83.478 E3.06867
G1 X25.790 Y83.386 E3.15602
G1 X26.084 Y83.386 E3.18271
G1 X26.084 Y88.160 E3.61676
G1 X26.311 Y88.179 E3.63749
G1 X26.531 Y88.238 E3.65822
G1 X26.738 Y88.335 E3.67895
G1 X26.924 Y88.466 E3.69968
G1 X27.086 Y88.627 E3.72042
G1 X27.216 Y88.814 E3.74114
G1 X27.334 Y89.098 E3.76909
G1 X27.334 Y88.248 E3.84631
G1 X28.583 Y88.248 E3.95996
G1 X28.583 Y95.054 E4.57879
G1 X29.421 Y94.560 E4.66721
G1 X29.833 Y94.260 E4.71354
G1 X29.833 Y88.248 E5.26023
G1 X31.083 Y88.248 E5.37387
G1 X31.083 Y92.932 E5.79975
G1 X27.334 Y95.419 F7800.000
G1 F1800
G1 X27.334 Y89.837 E6.30730
G1 X27.216 Y90.121 E6.33524
G1 X27.086 Y90.308 E6.35597
G1 X26.924 Y90.469 E6.37670
G1 X26.738 Y90.600 E6.39743
G1 X26.531 Y90.697 E6.41816
G1 X26.311 Y90.756 E6.43889
G1 X26.084 Y90.775 E6.45962
G1 X26.084 Y95.589 E6.89731
G1 X25.476 Y95.519 E6.95296
G1 X25.450 Y95.468 E6.95817
G1 X25.064 Y95.468 E6.99327
G1 X24.834 Y95.419 E7.01466
G1 X24.834 Y89.837 E7.52220
G1 E5.52220 F2400.00000
G92 E0
G1 X27.334 Y88.248 F7800.000
G1 E2.00000 F2400.00000
G1 F1800
G1 X26.714 Y88.248 E2.05630
G1 X26.469 Y87.526 E2.12567
G1 X27.334 Y86.861 E2.22484
G1 X27.334 Y83.478 E2.53252
G1 X28.289 Y83.792 E2.62401
G1 X28.583 Y83.923 E2.65329
G1 X28.583 Y86.743 E2.90971
G1 X29.833 Y86.743 E3.02335
G1 X29.833 Y84.654 E3.21335
G1 X30.407 Y85.180 E3.28413
G1 X30.800 Y85.616 E3.33750
G1 X31.083 Y85.999 E3.38079
G1 X31.083 Y86.743 E3.44849
G1 E1.44849 F2400.00000
G92 E0
G1 X22.334 Y86.963 F7800.000
G1 E2.00000 F2400.00000
G1 F1800
G1 X22.334 Y84.654 E2.21000
G1 X21.751 Y85.191 E2.28209
G1 X21.368 Y85.616 E2.33416
G1 X21.085 Y85.999 E2.37744
G1 X21.085 Y86.963 E2.46515
G1 X20.541 Y86.963 E2.51461
G1 X20.782 Y86.407 E2.56978
G1 X21.085 Y85.999 E2.61595
G1 E0.61595 F2400.00000
G92 E0
G1 X21.085 Y88.248 F7800.000
G1 E2.00000 F2400.00000
G1 F1800
G1 X20.125 Y88.248 E2.08729
G1 X19.996 Y88.828 E2.14126
G1 X20.005 Y89.811 E2.23071
G1 X20.066 Y90.388 E2.28344
G1 X20.262 Y91.359 E2.37353
G1 X20.670 Y92.254 E2.46297
G1 X20.964 Y92.762 E2.51634
G1 X21.085 Y92.932 E2.53528
G1 X21.085 Y88.248 E2.96116
G1 X22.334 Y88.248 E3.07480
G1 X22.334 Y94.260 E3.62149
M140 S50 ; set bed temperature
G1 Z0.450 F7800.000
G1 E1.62149 F2400.00000
G92 E0
G1 X28.024 Y97.950 F7800.000
G1 E2.00000 F2400.00000
G1 F900
G1 X27.762 Y98.005 E2.00466
G1 X27.527 Y97.587 E2.01301
G1 X28.068 Y97.474 E2.02262
G1 X28.029 Y97.890 E2.02989
G1 X27.757 Y97.931 F7800.000
G1 E0.02989 F2400.00000
G92 E0
G1 X24.642 Y97.586 F7800.000
G1 E2.00000 F2400.00000
G1 F900
G1 X24.406 Y98.005 E2.00837
G1 X24.144 Y97.950 E2.01303
G1 X24.101 Y97.471 E2.02139
G1 X24.583 Y97.574 E2.02996
G1 X24.398 Y97.903 F7800.000
G1 E0.02996 F2400.00000
G92 E0
G1 X21.464 Y96.298 F7800.000
G1 E2.00000 F2400.00000
G1 F900
G1 X21.078 Y96.585 E2.00837
G1 X20.862 Y96.428 E2.01303
G1 X21.017 Y95.973 E2.02139
G1 X21.416 Y96.262 E2.02996
G1 X21.113 Y96.488 F7800.000
G1 E0.02996 F2400.00000
G92 E0
G1 X19.086 Y93.828 F7800.000
G1 E2.00000 F2400.00000
G1 F900
G1 X18.616 Y93.934 E2.00837
G1 X18.482 Y93.702 E2.01303
G1 X18.809 Y93.349 E2.02139
G1 X19.056 Y93.776 E2.02996
G1 X18.687 Y93.860 F7800.000
G1 E0.02996 F2400.00000
G92 E0
G1 X17.917 Y90.605 F7800.000
G1 E2.00000 F2400.00000
G1 F900
G1 X17.445 Y90.510 E2.00837
G1 X17.417 Y90.244 E2.01303
G1 X17.859 Y90.055 E2.02139
G1 X17.911 Y90.545 E2.02996
G1 X17.540 Y90.471 F7800.000
G1 E0.02996 F2400.00000
G92 E0
G1 X18.157 Y87.182 F7800.000
G1 E2.00000 F2400.00000
G1 F900
G1 X17.768 Y86.906 E2.00829
G1 X17.852 Y86.648 E2.01301
G1 X18.323 Y86.645 E2.02122
G1 X18.175 Y87.125 E2.02996
G1 X17.867 Y86.906 F7800.000
G1 E0.02996 F2400.00000
G92 E0
G1 X19.774 Y84.159 F7800.000
G1 E2.00000 F2400.00000
G1 F900
G1 X19.529 Y83.746 E2.00837
G1 X19.708 Y83.546 E2.01304
G1 X20.145 Y83.748 E2.02141
G1 X19.814 Y84.115 E2.03001
G1 X19.621 Y83.790 F7800.000
G1 E0.03001 F2400.00000
G92 E0
G1 X22.479 Y82.052 F7800.000
G1 E2.00000 F2400.00000
G1 F900
G1 X22.423 Y81.574 E2.00837
G1 X22.668 Y81.465 E2.01304
G1 X22.985 Y81.826 E2.02141
G1 X22.533 Y82.027 E2.03001
G1 X22.489 Y81.652 F7800.000
G1 E0.03001 F2400.00000
G92 E0
G1 X25.807 Y81.227 F7800.000
G1 E2.00000 F2400.00000
G1 F900
G1 X25.950 Y80.767 E2.00837
G1 X26.218 Y80.767 E2.01304
G1 X26.361 Y81.227 E2.02141
G1 X25.867 Y81.227 E2.03001
G1 X25.979 Y80.866 F7800.000
G1 E0.03001 F2400.00000
G92 E0
G1 X29.182 Y81.826 F7800.000
G1 E2.00000 F2400.00000
G1 F900
G1 X29.500 Y81.465 E2.00837
G1 X29.745 Y81.574 E2.01303
G1 X29.688 Y82.052 E2.02140
G1 X29.237 Y81.851 E2.02999
G1 X29.487 Y81.566 F7800.000
G1 E0.02999 F2400.00000
G92 E0
G1 X32.022 Y83.747 F7800.000
G1 E2.00000 F2400.00000
G1 F900
G1 X32.460 Y83.546 E2.00838
G1 X32.639 Y83.745 E2.01304
G1 X32.393 Y84.159 E2.02141
G1 X32.063 Y83.792 E2.03000
G1 X32.406 Y83.634 F7800.000
G1 E0.03000 F2400.00000
G92 E0
G1 X33.831 Y86.643 F7800.000
G1 E2.00000 F2400.00000
G1 F900
G1 X34.316 Y86.648 E2.00843
G1 X34.399 Y86.906 E2.01315
G1 X34.007 Y87.184 E2.02152
G1 X33.850 Y86.700 E2.03037
G1 X34.227 Y86.704 F7800.000
G1 E0.03037 F2400.00000
G92 E0
G1 X34.311 Y90.054 F7800.000
G1 E2.00000 F2400.00000
G1 F900
G1 X34.750 Y90.244 E2.00832
G1 X34.722 Y90.510 E2.01298
G1 X34.252 Y90.604 E2.02133
G1 X34.305 Y90.114 E2.02991
G1 X34.652 Y90.263 F7800.000
G1 E0.02991 F2400.00000
G92 E0
G1 X33.362 Y93.350 F7800.000
G1 E2.00000 F2400.00000
G1 F900
G1 X33.685 Y93.701 E2.00831
G1 X33.551 Y93.933 E2.01297
G1 X33.084 Y93.828 E2.02131
G1 X33.332 Y93.402 E2.02989
G1 X33.588 Y93.680 F7800.000
G1 E0.02989 F2400.00000
G92 E0
G1 X31.153 Y95.975 F7800.000
G1 E2.00000 F2400.00000
G1 F900
G1 X31.306 Y96.427 E2.00831
G1 X31.089 Y96.585 E2.01297
G1 X30.705 Y96.298 E2.02131
G1 X31.105 Y96.010 E2.02988
G1 X31.226 Y96.368 F7800.000
G1 Z0.450 F7800.000
G1 E0.02988 F2400.00000
G92 E0
G1 X32.275 Y88.828 F7800.000
G1 E2.00000 F2400.00000
G1 F3600
G1 X32.175 Y88.365 E2.00824
G1 X31.841 Y88.365 E2.01403
G1 X31.841 Y91.749 E2.07291
G1 X31.589 Y92.301 E2.08349
G1 X31.408 Y92.615 E2.08979
G1 X31.408 Y88.365 E2.16375
G1 X30.974 Y88.365 E2.17130
G1 X30.974 Y93.262 E2.25651
G1 X30.710 Y93.633 E2.26443
G1 X30.541 Y93.783 E2.26837
G1 X30.541 Y88.365 E2.36264
G1 X30.107 Y88.365 E2.37019
G1 X30.107 Y94.166 E2.47113
G1 X29.674 Y94.504 E2.48070
G1 X29.674 Y88.365 E2.58752
G1 X29.240 Y88.365 E2.59506
G1 X29.240 Y94.787 E2.70680
G1 X28.806 Y95.042 E2.71556
G1 X28.806 Y88.365 E2.83175
G1 X28.373 Y88.365 E2.83930
G1 X28.373 Y95.231 E2.95877
G1 X27.939 Y95.368 E2.96668
G1 X27.939 Y88.365 E3.08853
G1 X27.506 Y88.365 E3.09608
G1 X27.506 Y95.488 E3.22002
G1 X27.072 Y95.571 E3.22771
G1 X27.072 Y90.147 E3.32209
G1 X27.006 Y90.242 E3.32409
G1 X26.858 Y90.390 E3.32774
G1 X26.639 Y90.532 E3.33229
G1 X26.639 Y95.629 E3.42098
G1 X26.205 Y95.679 E3.42857
G1 X26.205 Y90.661 E3.51589
G1 X26.084 Y90.672 E3.51801
G1 X25.772 Y90.626 E3.52350
G1 X25.772 Y95.657 E3.61105
G1 X25.408 Y95.616 E3.61741
G1 X25.386 Y95.571 E3.61827
G1 X25.338 Y95.571 E3.61911
G1 X25.338 Y90.410 E3.70893
G1 X25.161 Y90.242 E3.71317
G1 X25.041 Y90.070 E3.71683
G1 X24.952 Y89.879 E3.72048
G1 X24.904 Y89.701 E3.72368
G1 X24.904 Y95.540 E3.82528
G1 X24.904 Y89.701 E3.92687
G1 E1.92687 F2400.00000
G92 E0
G1 X26.639 Y88.365 F7800.000
G1 E2.00000 F2400.00000
G1 F3600
G1 X26.558 Y88.365 E2.00140
G1 X26.639 Y88.403 E2.00295
G1 X26.639 Y88.365 E2.00360
G1 X27.072 Y88.365 E2.01115
G1 X27.072 Y88.788 E2.01850
G1 E0.01850 F2400.00000
G92 E0
G1 X23.606 Y87.067 F7800.000
G1 E2.00000 F2400.00000
G1 F3600
G1 X23.606 Y83.801 E2.05683
G1 X23.146 Y84.024 E2.06573
G1 X23.146 Y87.067 E2.11868
G1 X22.685 Y87.067 E2.12669
G1 X22.685 Y84.284 E2.17512
G1 X22.425 Y84.431 E2.18033
G1 X22.225 Y84.614 E2.18504
G1 X22.225 Y87.067 E2.22772
G1 X21.765 Y87.067 E2.23573
G1 X21.765 Y85.044 E2.27093
G1 X21.304 Y85.533 E2.28261
G1 X21.304 Y87.067 E2.30930
G1 X20.844 Y87.067 E2.31731
G1 X20.844 Y86.150 E2.33325
G1 X20.692 Y86.355 E2.33768
G1 X20.383 Y87.066 E2.35118
G1 X19.893 Y88.816 F7800.000
G1 F3600
G1 X19.993 Y88.365 E2.35922
G1 X20.360 Y88.365 E2.36562
G1 X20.360 Y91.823 E2.42579
G1 X20.578 Y92.301 E2.43494
G1 X20.828 Y92.733 E2.44362
G1 X20.828 Y88.365 E2.51963
G1 X21.295 Y88.365 E2.52777
G1 X21.295 Y93.406 E2.61548
G1 X21.457 Y93.633 E2.62034
G1 X21.763 Y93.903 E2.62743
G1 X21.763 Y88.365 E2.72380
G1 X22.231 Y88.365 E2.73194
G1 X22.231 Y94.313 E2.83544
G1 X22.698 Y94.646 E2.84543
G1 X22.698 Y88.365 E2.95473
G1 X23.166 Y88.365 E2.96287
G1 X23.166 Y94.862 E3.07593
G1 E1.07593 F2400.00000
G92 E0
G1 X24.904 Y83.367 F7800.000
G1 E2.00000 F2400.00000
G1 F3600
G1 X24.904 Y89.234 E2.10209
G1 X24.904 Y83.367 E2.20418
G1 X25.350 Y83.324 E2.21197
G1 X25.350 Y88.517 E2.30232
G1 X25.482 Y88.425 E2.30511
G1 X25.672 Y88.336 E2.30876
G1 X25.796 Y88.303 E2.31100
G1 X25.796 Y83.283 E2.39835
G1 X26.242 Y83.283 E2.40611
G1 X26.242 Y87.553 E2.48041
G1 X26.688 Y87.210 E2.49020
G1 X26.688 Y83.312 E2.55803
G1 X27.134 Y83.355 E2.56583
G1 X27.134 Y86.868 E2.62695
G1 X27.447 Y86.627 E2.63383
G1 X27.580 Y86.627 E2.63613
G1 X27.580 Y83.446 E2.69148
G1 X28.026 Y83.595 E2.69967
G1 X28.026 Y86.627 E2.75242
G1 X28.472 Y86.627 E2.76018
G1 X28.472 Y83.761 E2.81005
G1 X28.918 Y83.965 E2.81858
G1 X28.918 Y86.627 E2.86490
G1 X29.364 Y86.627 E2.87266
G1 X29.364 Y84.217 E2.91460
G1 X29.743 Y84.431 E2.92218
G1 X29.809 Y84.492 E2.92375
G1 X29.809 Y86.627 E2.96090
G1 X30.255 Y86.627 E2.96865
G1 X30.255 Y84.901 E2.99868
G1 X30.480 Y85.107 E3.00399
G1 X30.701 Y85.353 E3.00974
G1 X30.701 Y86.627 E3.03191
G1 X31.147 Y86.627 E3.03967
G1 X31.147 Y85.912 E3.05210
G1 X31.475 Y86.355 E3.06169
G1 X31.593 Y86.627 E3.06684
G1 Z0.550 F7800.000
G1 E1.06684 F2400.00000
G92 E0
G1 X28.116 Y97.369 F7800.000
G1 E2.00000 F2400.00000
G1 F600
G1 X28.052 Y98.067 E2.01219
G1 X27.780 Y98.125 E2.01704
G1 X27.435 Y97.503 E2.02942
G1 X28.057 Y97.381 E2.04045
G1 X27.974 Y97.743 F7800.000
G1 E0.04045 F2400.00000
G92 E0
G1 X24.726 Y97.513 F7800.000
G1 E2.00000 F2400.00000
G1 F600
G1 X24.388 Y98.125 E2.01217
G1 X24.115 Y98.067 E2.01702
G1 X24.052 Y97.360 E2.02936
G1 X24.667 Y97.500 E2.04034
G1 X24.537 Y97.793 F7800.000
G1 E0.04034 F2400.00000
G92 E0
G1 X21.571 Y96.265 F7800.000
G1 E2.00000 F2400.00000
G1 F600
G1 X21.014 Y96.687 E2.01216
G1 X20.788 Y96.523 E2.01702
G1 X21.017 Y95.852 E2.02937
G1 X21.523 Y96.229 E2.04034
G1 X21.272 Y96.451 F7800.000
G1 E0.04034 F2400.00000
G92 E0
G1 X19.196 Y93.841 F7800.000
G1 E2.00000 F2400.00000
G1 F600
G1 X18.515 Y94.001 E2.01216
G1 X18.376 Y93.759 E2.01702
G1 X18.859 Y93.239 E2.02937
G1 X19.167 Y93.789 E2.04034
G1 X18.848 Y93.890 F7800.000
G1 E0.04034 F2400.00000
G92 E0
G1 X18.013 Y90.662 F7800.000
G1 E2.00000 F2400.00000
G1 F600
G1 X17.326 Y90.530 E2.01216
G1 X17.297 Y90.253 E2.01702
G1 X17.949 Y89.974 E2.02937
G1 X18.007 Y90.602 E2.04034
G1 X17.674 Y90.565 F7800.000
G1 E0.04034 F2400.00000
G92 E0
G1 X18.225 Y87.276 F7800.000
G1 E2.00000 F2400.00000
G1 F600
G1 X17.651 Y86.876 E2.01217
G1 X17.738 Y86.607 E2.01709
G1 X18.449 Y86.621 E2.02946
G1 X18.244 Y87.219 E2.04045
G1 X17.989 Y87.014 F7800.000
G1 E0.04045 F2400.00000
G92 E0
G1 X19.796 Y84.269 F7800.000
G1 E2.00000 F2400.00000
G1 F600
G1 X19.434 Y83.670 E2.01217
G1 X19.623 Y83.460 E2.01709
G1 X20.267 Y83.761 E2.02946
G1 X19.836 Y84.225 E2.04048
G1 X19.700 Y83.930 F7800.000
G1 E0.04048 F2400.00000
G92 E0
G1 X22.454 Y82.160 F7800.000
G1 E2.00000 F2400.00000
G1 F600
G1 X22.367 Y81.467 E2.01217
G1 X22.625 Y81.352 E2.01709
G1 X23.091 Y81.889 E2.02947
G1 X22.509 Y82.137 E2.04048
G1 X22.501 Y81.812 F7800.000
G1 E0.04048 F2400.00000
G92 E0
G1 X25.740 Y81.316 F7800.000
G1 E2.00000 F2400.00000
G1 F600
G1 X25.942 Y80.647 E2.01217
G1 X26.225 Y80.647 E2.01709
G1 X26.433 Y81.327 E2.02946
G1 X25.800 Y81.317 E2.04048
G1 X25.928 Y81.018 F7800.000
G1 E0.04048 F2400.00000
G92 E0
G1 X29.085 Y81.881 F7800.000
G1 E2.00000 F2400.00000
G1 F600
G1 X29.542 Y81.352 E2.01217
G1 X29.800 Y81.466 E2.01708
G1 X29.714 Y82.173 E2.02946
G1 X29.139 Y81.906 E2.04047
G1 X29.378 Y81.685 F7800.000
G1 E0.04047 F2400.00000
G92 E0
G1 X31.911 Y83.757 F7800.000
G1 E2.00000 F2400.00000
G1 F600
G1 X32.545 Y83.460 E2.01217
G1 X32.733 Y83.670 E2.01708
G1 X32.367 Y84.280 E2.02947
G1 X31.951 Y83.802 E2.04048
G1 X32.258 Y83.698 F7800.000
G1 E0.04048 F2400.00000
G92 E0
G1 X33.730 Y86.622 F7800.000
G1 E2.00000 F2400.00000
G1 F600
G1 X34.429 Y86.607 E2.01216
G1 X34.516 Y86.876 E2.01708
G1 X33.934 Y87.284 E2.02945
G1 X33.748 Y86.679 E2.04046
G1 X34.099 Y86.717 F7800.000
G1 E0.04046 F2400.00000
G92 E0
G1 X34.227 Y89.977 F7800.000
G1 E2.00000 F2400.00000
G1 F600
G1 X34.871 Y90.253 E2.01219
G1 X34.842 Y90.530 E2.01703
G1 X34.143 Y90.665 E2.02941
G1 X34.220 Y90.036 E2.04044
G1 X34.535 Y90.232 F7800.000
G1 E0.04044 F2400.00000
G92 E0
G1 X33.316 Y93.245 F7800.000
G1 E2.00000 F2400.00000
G1 F600
G1 X33.792 Y93.759 E2.01219
G1 X33.653 Y94.000 E2.01703
G1 X32.959 Y93.840 E2.02941
G1 X33.285 Y93.296 E2.04044
G1 X33.493 Y93.603 F7800.000
G1 E0.04044 F2400.00000
G92 E0
G1 X31.154 Y95.860 F7800.000
G1 E2.00000 F2400.00000
G1 F600
G1 X31.380 Y96.523 E2.01219
G1 X31.155 Y96.687 E2.01703
G1 X30.587 Y96.258 E2.02941
G1 X31.105 Y95.894 E2.04044
G1 X31.171 Y96.259 F7800.000
M106 S255
G1 Z0.650 F7800.000
G1 E0.04044 F2400.00000
G92 E0
G1 X28.164 Y97.258 F7800.000
G1 E2.00000 F2400.00000
G1 F600
G1 X28.085 Y98.183 E2.01617
G1 X27.801 Y98.244 E2.02123
G1 X27.596 Y97.895 E2.02827
