; generated by Slic3r 1.3.1-dev on 2020-02-13 at 09:41:19

; external perimeters extrusion width = 0.44mm (1.26mm^3/s)
; perimeters extrusion width = 0.56mm (3.23mm^3/s)
; infill extrusion width = 0.50mm (3.83mm^3/s)
; solid infill extrusion width = 0.56mm (1.08mm^3/s)
; top infill extrusion width = 0.56mm (0.81mm^3/s)
; support material extrusion width = 0.44mm (2.51mm^3/s)

M107
M190 S65 ; set bed temperature and wait for it to be reached
M104 S210 ; set temperature
G28 ; home all axes
G1 Z5 F5000 ; lift nozzle

; Filament gcode

M109 S210 ; set temperature and wait for it to be reached
G21 ; set units to millimeters
G90 ; use absolute coordinates
M82 ; use absolute distances for extrusion
G92 E0
G92 E0
G1 Z0.350 F7800.000
G1 E-2.00000 F2400.00000
G92 E0
G1 X16.899 Y77.418 F7800.000
G1 E2.00000 F2400.00000
G1 F1800
G1 X17.765 Y77.260 E2.08004
G1 X19.031 Y77.105 E2.19601
G1 X19.570 Y77.072 E2.24505
G1 X20.835 Y77.048 E2.36014
G1 X45.698 Y77.651 E4.62161
G1 X46.208 Y77.683 E4.66802
G1 X47.316 Y77.796 E4.76934
G1 X47.980 Y77.898 E4.83036
G1 X49.071 Y78.122 E4.93168
G1 X49.721 Y78.290 E4.99270
G1 X50.784 Y78.624 E5.09403
G1 X51.413 Y78.857 E5.15505
G1 X52.437 Y79.296 E5.25637
G1 X53.040 Y79.592 E5.31739
G1 X54.014 Y80.133 E5.41872
G1 X54.583 Y80.488 E5.47973
G1 X55.498 Y81.124 E5.58105
G1 X56.029 Y81.535 E5.64208
G1 X56.874 Y82.261 E5.74340
G1 X57.361 Y82.723 E5.80442
G1 X58.128 Y83.531 E5.90574
G1 X58.565 Y84.040 E5.96676
G1 X59.247 Y84.921 E6.06809
G1 X59.631 Y85.472 E6.12911
G1 X60.220 Y86.417 E6.23043
G1 X60.546 Y87.004 E6.29145
G1 X61.037 Y88.005 E6.39277
G1 X61.301 Y88.621 E6.45379
G1 X61.688 Y89.666 E6.55512
G1 X61.889 Y90.307 E6.61614
G1 X62.168 Y91.385 E6.71746
G1 X62.304 Y92.043 E6.77848
G1 X62.472 Y93.144 E6.87980
G1 X62.540 Y93.812 E6.94082
G1 X62.597 Y94.925 E7.04214
G1 X62.597 Y95.596 E7.10317
G1 X62.540 Y96.709 E7.20449
G1 X62.472 Y97.376 E7.26551
G1 X62.304 Y98.478 E7.36683
G1 X62.168 Y99.135 E7.42785
G1 X61.889 Y100.214 E7.52918
G1 X61.688 Y100.854 E7.59019
G1 X61.301 Y101.899 E7.69152
G1 X61.037 Y102.516 E7.75254
G1 X60.546 Y103.516 E7.85386
G1 X60.220 Y104.103 E7.91488
G1 X59.631 Y105.048 E8.01620
G1 X59.247 Y105.599 E8.07722
G1 X58.565 Y106.480 E8.17854
G1 X58.128 Y106.990 E8.23957
G1 X57.361 Y107.797 E8.34089
G1 X56.874 Y108.260 E8.40191
G1 X56.029 Y108.985 E8.50323
G1 X55.498 Y109.396 E8.56426
G1 X54.583 Y110.033 E8.66558
G1 X54.014 Y110.388 E8.72659
G1 X53.040 Y110.928 E8.82791
G1 X52.437 Y111.224 E8.88894
G1 X51.413 Y111.663 E8.99026
G1 X50.784 Y111.896 E9.05128
G1 X49.907 Y112.172 E9.13487
G1 X49.071 Y112.398 E9.21361
G1 X47.979 Y112.623 E9.31493
G1 X47.316 Y112.724 E9.37595
G1 X46.208 Y112.837 E9.47727
G1 X45.537 Y112.871 E9.53829
G1 X44.261 Y112.869 E9.65439
G1 X20.504 Y112.286 E11.81525
G1 X19.031 Y112.229 E11.94923
G1 X17.765 Y112.074 E12.06520
G1 X17.233 Y111.986 E12.11424
G1 X15.990 Y111.702 E12.23022
G1 X15.145 Y111.456 E12.31026
G1 X13.943 Y111.028 E12.42623
G1 X12.601 Y110.421 E12.56021
G1 X11.824 Y110.007 E12.64025
G1 X10.735 Y109.343 E12.75623
G1 X9.545 Y108.474 E12.89021
G1 X8.869 Y107.910 E12.97025
G1 X7.801 Y106.895 E13.10424
G1 X6.734 Y105.681 E13.25121
G1 X5.864 Y104.491 E13.38519
G1 X5.392 Y103.749 E13.46523
G1 X4.683 Y102.457 E13.59921
G1 X4.164 Y101.292 E13.71519
G1 X3.854 Y100.468 E13.79522
G1 X3.474 Y99.251 E13.91120
G1 X3.154 Y97.812 E14.04518
G1 X3.019 Y96.943 E14.12522
G1 X2.896 Y95.673 E14.24119
G1 X2.868 Y94.466 E14.35093
G1 X2.923 Y93.321 E14.45524
G1 X3.019 Y92.391 E14.54020
G1 X3.154 Y91.521 E14.62024
G1 X3.474 Y90.083 E14.75422
G1 X3.854 Y88.865 E14.87020
G1 X4.164 Y88.042 E14.95023
G1 X4.771 Y86.699 E15.08422
G1 X5.568 Y85.293 E15.23120
G1 X6.406 Y84.081 E15.36517
G1 X6.952 Y83.391 E15.44522
G1 X7.801 Y82.439 E15.56119
G1 X8.869 Y81.424 E15.69517
G1 X9.545 Y80.860 E15.77521
G1 X10.735 Y79.991 E15.90919
G1 X12.120 Y79.159 E16.05617
G1 X13.447 Y78.517 E16.19015
G1 X14.262 Y78.185 E16.27019
G1 X15.470 Y77.775 E16.38617
G1 X16.841 Y77.431 E16.51469
G1 E14.51469 F2400.00000
G92 E0
G1 X20.919 Y98.560 F7800.000
G1 E2.00000 F2400.00000
G1 F1800
G1 X20.490 Y98.598 E2.03917
G1 X19.807 Y98.538 E2.10147
G1 X19.146 Y98.361 E2.16378
G1 X18.525 Y98.071 E2.22608
G1 X17.963 Y97.678 E2.28839
G1 X17.479 Y97.194 E2.35069
G1 X17.086 Y96.632 E2.41300
G1 X16.796 Y96.011 E2.47530
G1 X16.619 Y95.350 E2.53760
G1 X16.559 Y94.667 E2.59991
G1 X16.619 Y93.984 E2.66222
G1 X16.796 Y93.322 E2.72452
G1 X17.086 Y92.701 E2.78682
G1 X17.479 Y92.140 E2.84913
G1 X17.963 Y91.656 E2.91143
G1 X18.525 Y91.263 E2.97374
G1 X19.146 Y90.973 E3.03604
G1 X19.807 Y90.796 E3.09835
G1 X20.490 Y90.736 E3.16065
G1 X21.173 Y90.796 E3.22296
G1 X21.835 Y90.973 E3.28526
G1 X22.456 Y91.263 E3.34757
G1 X23.017 Y91.656 E3.40987
G1 X23.501 Y92.140 E3.47218
G1 X23.894 Y92.701 E3.53448
G1 X24.184 Y93.322 E3.59679
G1 X24.361 Y93.984 E3.65909
G1 X24.421 Y94.667 E3.72140
G1 X24.361 Y95.350 E3.78370
G1 X24.184 Y96.011 E3.84601
G1 X23.894 Y96.632 E3.90831
G1 X23.501 Y97.194 E3.97062
G1 X23.017 Y97.678 E4.03292
G1 X22.456 Y98.071 E4.09523
G1 X21.835 Y98.361 E4.15753
G1 X21.173 Y98.538 E4.21984
G1 X20.979 Y98.555 E4.23752
G1 X20.865 Y97.938 F7800.000
G1 F1800
G1 X20.490 Y97.971 E4.27171
G1 X19.916 Y97.920 E4.32408
G1 X19.360 Y97.771 E4.37644
G1 X18.838 Y97.528 E4.42880
G1 X18.367 Y97.198 E4.48116
G1 X17.959 Y96.790 E4.53353
G1 X17.629 Y96.319 E4.58589
G1 X17.386 Y95.797 E4.63825
G1 X17.237 Y95.241 E4.69061
G1 X17.186 Y94.667 E4.74298
G1 X17.237 Y94.093 E4.79534
G1 X17.386 Y93.537 E4.84770
G1 X17.629 Y93.015 E4.90006
G1 X17.959 Y92.543 E4.95243
G1 X18.367 Y92.136 E5.00479
G1 X18.838 Y91.806 E5.05715
G1 X19.360 Y91.563 E5.10951
G1 X19.916 Y91.413 E5.16188
G1 X20.490 Y91.363 E5.21424
G1 X21.064 Y91.413 E5.26660
G1 X21.620 Y91.563 E5.31896
G1 X22.142 Y91.806 E5.37133
G1 X22.614 Y92.136 E5.42369
G1 X23.021 Y92.543 E5.47605
G1 X23.351 Y93.015 E5.52841
G1 X23.594 Y93.537 E5.58078
G1 X23.743 Y94.093 E5.63314
G1 X23.794 Y94.667 E5.68550
G1 X23.743 Y95.241 E5.73786
G1 X23.594 Y95.797 E5.79023
G1 X23.351 Y96.319 E5.84259
G1 X23.021 Y96.790 E5.89495
G1 X22.614 Y97.198 E5.94731
G1 X22.142 Y97.528 E5.99968
G1 X21.620 Y97.771 E6.05204
G1 X21.064 Y97.920 E6.10440
G1 X20.924 Y97.933 E6.11711
G1 X20.810 Y97.315 F7800.000
G1 F1800
G1 X20.490 Y97.343 E6.14634
G1 X20.025 Y97.303 E6.18876
G1 X19.575 Y97.182 E6.23118
G1 X19.152 Y96.985 E6.27360
G1 X18.770 Y96.717 E6.31602
G1 X18.440 Y96.387 E6.35844
G1 X18.172 Y96.005 E6.40086
G1 X17.975 Y95.582 E6.44328
G1 X17.854 Y95.132 E6.48570
G1 X17.814 Y94.667 E6.52812
G1 X17.854 Y94.202 E6.57054
G1 X17.975 Y93.752 E6.61296
G1 X18.172 Y93.329 E6.65538
G1 X18.440 Y92.947 E6.69780
G1 X18.770 Y92.617 E6.74022
G1 X19.152 Y92.349 E6.78264
G1 X19.575 Y92.152 E6.82506
G1 X20.025 Y92.031 E6.86748
G1 X20.490 Y91.991 E6.90990
G1 X20.955 Y92.031 E6.95232
G1 X21.405 Y92.152 E6.99474
G1 X21.828 Y92.349 E7.03716
G1 X22.210 Y92.617 E7.07958
G1 X22.540 Y92.947 E7.12200
G1 X22.808 Y93.329 E7.16442
G1 X23.005 Y93.752 E7.20684
G1 X23.126 Y94.202 E7.24926
G1 X23.166 Y94.667 E7.29168
G1 X23.126 Y95.132 E7.33410
G1 X23.005 Y95.582 E7.37652
G1 X22.808 Y96.005 E7.41894
G1 X22.540 Y96.387 E7.46136
G1 X22.210 Y96.717 E7.50378
G1 X21.828 Y96.985 E7.54620
G1 X21.405 Y97.182 E7.58862
G1 X20.955 Y97.303 E7.63104
G1 X20.870 Y97.310 E7.63878
G1 X20.687 Y97.612 F7800.000
G1 E5.63878 F2400.00000
G92 E0
G1 X21.389 Y104.008 F7800.000
G1 E2.00000 F2400.00000
G1 F1800
G1 X20.817 Y104.057 E2.05224
G1 X19.849 Y104.041 E2.14020
G1 X18.889 Y103.925 E2.22816
G1 X17.945 Y103.712 E2.31613
G1 X17.029 Y103.402 E2.40409
G1 X16.156 Y103.003 E2.49140
G1 X15.169 Y102.411 E2.59604
G1 X14.406 Y101.827 E2.68335
G1 X13.702 Y101.164 E2.77131
G1 X13.070 Y100.432 E2.85928
G1 X12.517 Y99.638 E2.94724
G1 X12.048 Y98.792 E3.03521
G1 X11.669 Y97.902 E3.12317
G1 X11.383 Y96.978 E3.21114
G1 X11.193 Y96.029 E3.29910
G1 X11.100 Y95.038 E3.38960
G1 X11.105 Y94.203 E3.46551
G1 X11.193 Y93.308 E3.54734
G1 X11.383 Y92.356 E3.63560
G1 X11.669 Y91.432 E3.72356
G1 X12.048 Y90.542 E3.81153
G1 X12.517 Y89.696 E3.89949
G1 X13.070 Y88.902 E3.98746
G1 X13.702 Y88.170 E4.07542
G1 X14.401 Y87.511 E4.16273
G1 X15.321 Y86.821 E4.26737
G1 X16.149 Y86.334 E4.35468
G1 X17.029 Y85.932 E4.44264
G1 X17.945 Y85.622 E4.53061
G1 X18.889 Y85.408 E4.61857
G1 X19.849 Y85.293 E4.70653
G1 X20.817 Y85.277 E4.79450
G1 X21.780 Y85.360 E4.88246
G1 X22.734 Y85.543 E4.97072
G1 X23.577 Y85.793 E5.05070
G1 X24.393 Y86.120 E5.13068
G1 X25.254 Y86.568 E5.21894
G1 X26.062 Y87.101 E5.30691
G1 X26.810 Y87.714 E5.39487
G1 X27.486 Y88.396 E5.48218
G1 X28.201 Y89.298 E5.58682
G1 X28.709 Y90.113 E5.67413
G1 X29.133 Y90.982 E5.76209
G1 X29.466 Y91.890 E5.85006
G1 X29.704 Y92.828 E5.93802
G1 X29.845 Y93.785 E6.02599
G1 X29.886 Y94.752 E6.11395
G1 X29.827 Y95.717 E6.20191
G1 X29.670 Y96.672 E6.28988
G1 X29.415 Y97.605 E6.37784
G1 X29.063 Y98.514 E6.46646
G1 X28.712 Y99.215 E6.53774
G1 X28.197 Y100.042 E6.62636
G1 X27.603 Y100.806 E6.71432
G1 X26.934 Y101.505 E6.80229
G1 X26.197 Y102.131 E6.89025
G1 X25.399 Y102.678 E6.97822
G1 X24.550 Y103.141 E7.06618
G1 X23.657 Y103.513 E7.15415
G1 X22.731 Y103.792 E7.24211
G1 X21.780 Y103.974 E7.33007
G1 X21.449 Y104.003 E7.36035
G1 X21.443 Y104.630 F7800.000
G1 F1800
G1 X20.838 Y104.683 E7.41551
G1 X19.807 Y104.665 E7.50933
G1 X18.782 Y104.542 E7.60316
G1 X17.776 Y104.314 E7.69698
G1 X16.798 Y103.984 E7.79080
G1 X15.864 Y103.557 E7.88422
G1 X14.817 Y102.928 E7.99524
G1 X14.001 Y102.304 E8.08866
G1 X13.250 Y101.597 E8.18248
G1 X12.576 Y100.815 E8.27630
G1 X11.986 Y99.969 E8.37012
G1 X11.486 Y99.067 E8.46395
G1 X11.081 Y98.117 E8.55777
G1 X10.776 Y97.132 E8.65159
G1 X10.574 Y96.120 E8.74541
G1 X10.476 Y95.076 E8.84078
G1 X10.465 Y94.669 E8.87776
G1 X10.481 Y94.163 E8.92377
G1 X10.574 Y93.216 E9.01034
G1 X10.776 Y92.202 E9.10434
G1 X11.081 Y91.216 E9.19816
G1 X11.486 Y90.267 E9.29199
G1 X11.986 Y89.365 E9.38581
G1 X12.576 Y88.518 E9.47963
G1 X13.250 Y87.737 E9.57345
G1 X13.998 Y87.033 E9.66687
G1 X14.974 Y86.300 E9.77789
G1 X15.860 Y85.779 E9.87131
G1 X16.798 Y85.350 E9.96513
G1 X17.776 Y85.020 E10.05895
G1 X18.782 Y84.792 E10.15278
G1 X19.807 Y84.669 E10.24660
G1 X20.838 Y84.651 E10.34042
G1 X21.866 Y84.740 E10.43424
G1 X22.882 Y84.935 E10.52825
G1 X23.783 Y85.202 E10.61368
G1 X24.655 Y85.551 E10.69912
G1 X25.572 Y86.029 E10.79313
G1 X26.433 Y86.597 E10.88695
G1 X27.231 Y87.251 E10.98077
G1 X27.955 Y87.980 E11.07419
G1 X28.712 Y88.938 E11.18521
G1 X29.256 Y89.810 E11.27863
G1 X29.709 Y90.737 E11.37245
G1 X30.064 Y91.705 E11.46627
G1 X30.318 Y92.705 E11.56010
G1 X30.468 Y93.726 E11.65392
G1 X30.511 Y94.757 E11.74774
G1 X30.449 Y95.787 E11.84156
G1 X30.281 Y96.805 E11.93538
G1 X30.009 Y97.801 E12.02921
G1 X29.635 Y98.767 E12.12343
G1 X29.258 Y99.521 E12.20005
G1 X28.710 Y100.400 E12.29427
G1 X28.077 Y101.215 E12.38809
G1 X27.364 Y101.960 E12.48192
G1 X26.577 Y102.628 E12.57574
G1 X25.726 Y103.212 E12.66956
G1 X24.820 Y103.705 E12.76338
G1 X23.868 Y104.102 E12.85720
G1 X22.880 Y104.400 E12.95103
G1 X21.866 Y104.594 E13.04485
G1 X21.503 Y104.625 E13.07805
G1 X21.497 Y105.253 F7800.000
G1 F1800
G1 X20.860 Y105.308 E13.13614
G1 X19.764 Y105.290 E13.23582
G1 X18.676 Y105.159 E13.33550
G1 X17.607 Y104.916 E13.43518
G1 X16.568 Y104.566 E13.53486
G1 X15.572 Y104.111 E13.63440
G1 X14.466 Y103.446 E13.75179
G1 X13.596 Y102.781 E13.85132
G1 X12.798 Y102.029 E13.95100
G1 X12.082 Y101.199 E14.05068
G1 X11.455 Y100.300 E14.15036
G1 X10.924 Y99.341 E14.25004
G1 X10.494 Y98.333 E14.34972
G1 X10.170 Y97.286 E14.44940
G1 X9.955 Y96.211 E14.54908
G1 X9.852 Y95.113 E14.64932
G1 X9.840 Y94.668 E14.68983
G1 X9.857 Y94.123 E14.73936
G1 X9.955 Y93.124 E14.83067
G1 X10.170 Y92.048 E14.93041
G1 X10.494 Y91.001 E15.03009
G1 X10.924 Y89.993 E15.12977
G1 X11.455 Y89.034 E15.22945
G1 X12.082 Y88.135 E15.32913
G1 X12.798 Y87.305 E15.42881
G1 X13.595 Y86.554 E15.52835
G1 X14.627 Y85.779 E15.64573
G1 X15.571 Y85.224 E15.74527
G1 X16.568 Y84.768 E15.84495
G1 X17.607 Y84.417 E15.94463
G1 X18.676 Y84.175 E16.04431
G1 X19.764 Y84.044 E16.14399
G1 X20.860 Y84.026 E16.24367
G1 X21.952 Y84.120 E16.34335
G1 X23.030 Y84.327 E16.44310
G1 X23.988 Y84.611 E16.53400
G1 X24.916 Y84.983 E16.62490
G1 X25.889 Y85.490 E16.72464
G1 X26.804 Y86.093 E16.82432
G1 X27.652 Y86.788 E16.92400
G1 X28.423 Y87.565 E17.02354
G1 X29.224 Y88.577 E17.14092
G1 X29.803 Y89.506 E17.24046
G1 X30.285 Y90.491 E17.34014
G1 X30.662 Y91.520 E17.43982
G1 X30.932 Y92.583 E17.53950
G1 X31.090 Y93.668 E17.63918
G1 X31.137 Y94.763 E17.73886
G1 X31.071 Y95.857 E17.83854
G1 X30.892 Y96.939 E17.93822
G1 X30.604 Y97.996 E18.03790
G1 X30.207 Y99.020 E18.13772
G1 X29.804 Y99.826 E18.21969
G1 X29.223 Y100.758 E18.31951
G1 X28.551 Y101.623 E18.41919
G1 X27.793 Y102.415 E18.51887
G1 X26.957 Y103.125 E18.61855
G1 X26.053 Y103.745 E18.71823
G1 X25.090 Y104.269 E18.81791
G1 X24.079 Y104.691 E18.91759
G1 X23.029 Y105.007 E19.01727
G1 X21.952 Y105.213 E19.11695
G1 X21.556 Y105.248 E19.15308
G1 X21.260 Y104.931 F7800.000
G1 E17.15308 F2400.00000
G92 E0
G1 X18.155 Y103.200 F7800.000
G1 E2.00000 F2400.00000
G1 F1800
G1 X22.782 Y98.573 E2.59628
G1 X22.115 Y98.884 E2.66333
G1 X21.392 Y99.078 E2.73159
G1 X17.484 Y102.985 E3.23513
G1 X17.193 Y102.887 E3.26315
G1 X16.853 Y102.731 E3.29725
G1 X20.436 Y99.148 E3.75898
G1 X19.765 Y99.090 E3.82035
G1 X19.642 Y99.057 E3.83196
G1 X16.257 Y102.441 E4.26814
G1 X15.704 Y102.109 E4.32695
G1 X18.951 Y98.862 E4.74537
G1 X18.347 Y98.580 E4.80610
G1 X15.179 Y101.748 E5.21434
G1 X14.683 Y101.358 E5.27181
G1 X17.816 Y98.225 E5.67557
G1 X17.626 Y98.092 E5.69668
G1 X17.345 Y97.811 E5.73296
G1 X14.227 Y100.929 E6.13475
G1 X14.088 Y100.798 E6.15216
G1 X13.803 Y100.467 E6.19193
G1 X16.931 Y97.339 E6.59501
G1 X16.576 Y96.809 E6.65318
G1 X13.405 Y99.980 E7.06185
G1 X13.041 Y99.458 E7.11982
G1 X16.294 Y96.205 E7.53909
G1 X16.100 Y95.513 E7.60453
G1 X12.717 Y98.896 E8.04047
G1 X12.544 Y98.583 E8.07304
G1 X12.424 Y98.303 E8.10081
G1 X16.009 Y94.719 E8.56270
G1 X15.998 Y94.601 E8.57353
G1 X16.080 Y93.762 E8.65032
G1 X12.166 Y97.676 E9.15474
G1 X11.957 Y97.000 E9.21925
G1 E7.21925 F2400.00000
G92 E0
G1 X14.223 Y88.534 F7800.000
G1 E2.00000 F2400.00000
G1 F1800
G1 X13.498 Y89.352 E2.09964
G1 X12.982 Y90.093 E2.18193
G1 X12.544 Y90.883 E2.26421
G1 X12.383 Y91.259 E2.30149
G1 X17.086 Y86.557 E2.90752
G1 X17.326 Y86.447 E2.93153
G1 X18.181 Y86.158 E3.01381
G1 X18.426 Y86.103 E3.03664
G1 X11.916 Y92.613 E3.87558
G1 X11.745 Y93.466 E3.95488
G1 X11.723 Y93.691 E3.97545
G1 X19.509 Y85.905 E4.97882
G1 X19.958 Y85.851 E5.02005
G1 X20.457 Y85.842 E5.06551
G1 X11.661 Y94.638 E6.19904
G1 X11.659 Y95.077 E6.23901
G1 X11.697 Y95.488 E6.27661
G1 X21.311 Y85.875 E7.51546
G1 X21.761 Y85.913 E7.55663
G1 X22.094 Y85.977 E7.58751
G1 X11.799 Y96.271 E8.91412
G1 X11.957 Y97.000 E8.98201
G1 X16.454 Y92.503 E9.56153
G1 X16.932 Y91.803 E9.63875
G1 X17.494 Y91.241 E9.71115
G1 X18.193 Y90.763 E9.78837
G1 X22.822 Y86.135 E10.38485
G1 X23.500 Y86.342 E10.44947
G1 X19.585 Y90.257 E10.95399
G1 X20.424 Y90.175 E11.03078
G1 X20.542 Y90.185 E11.04161
G1 X24.132 Y86.595 E11.50425
G1 X24.720 Y86.894 E11.56428
G1 X21.336 Y90.277 E12.00027
G1 X22.028 Y90.471 E12.06571
G1 X25.277 Y87.222 E12.48442
G1 X25.806 Y87.579 E12.54255
G1 X22.632 Y90.753 E12.95158
G1 X23.163 Y91.108 E13.00975
G1 X26.293 Y87.977 E13.41314
G1 X26.456 Y88.111 E13.43232
G1 X26.749 Y88.407 E13.47030
G1 X23.634 Y91.522 E13.87174
G1 X23.916 Y91.803 E13.90802
G1 X24.048 Y91.993 E13.92912
G1 X27.178 Y88.863 E14.33247
G1 X27.570 Y89.357 E14.38992
G1 X24.404 Y92.523 E14.79791
G1 X24.685 Y93.127 E14.85864
G1 X27.934 Y89.879 E15.27730
G1 X28.267 Y90.431 E15.33608
G1 X24.880 Y93.819 E15.77264
G1 X24.913 Y93.942 E15.78426
G1 X24.971 Y94.612 E15.84562
G1 X28.558 Y91.026 E16.30782
G1 X28.808 Y91.662 E16.37008
G1 X24.901 Y95.569 E16.87354
G1 X24.707 Y96.292 E16.94180
G1 X24.396 Y96.959 E17.00885
G1 X29.018 Y92.337 E17.60450
G1 X29.157 Y92.884 E17.65594
G1 X29.183 Y93.058 E17.67198
G1 X18.877 Y103.363 E19.00001
G1 X19.663 Y103.463 E19.07217
G1 X29.290 Y93.836 E20.31287
G1 X29.326 Y94.686 E20.39041
G1 X20.517 Y103.495 E21.52556
