; generated by Slic3r 1.2.9 on 2020-02-10 at 21:41:18

; external perimeters extrusion width = 0.40mm
; perimeters extrusion width = 0.48mm
; infill extrusion width = 0.48mm
; solid infill extrusion width = 0.48mm
; top infill extrusion width = 0.48mm
; support material extrusion width = 0.40mm

M107
M190 S65 ; set bed temperature
M104 S210 ; set temperature
G28 ; home all axes
G1 Z5 F5000 ; lift nozzle

M109 S210 ; wait for temperature to be reached
G21 ; set units to millimeters
G90 ; use absolute coordinates
M82 ; use absolute distances for extrusion
G92 E0
G1 Z0.350 F7800.000
G1 E-2.00000 F2400.00000
G92 E0
G1 X24.576 Y66.334 F7800.000
G1 E2.00000 F2400.00000
G1 X25.802 Y65.943 E2.11703 F1800.000
G1 X26.462 Y65.769 E2.17905
G1 X27.721 Y65.506 E2.29608
G1 X28.395 Y65.401 E2.35809
G1 X29.675 Y65.269 E2.47513
G1 X30.357 Y65.233 E2.53714
G1 X31.643 Y65.233 E2.65416
G1 X32.325 Y65.269 E2.71618
G1 X33.605 Y65.401 E2.83321 F1800.000
G1 X34.279 Y65.506 E2.89523
G1 X35.539 Y65.769 E3.01225
G1 X36.198 Y65.943 E3.07428
G1 X37.424 Y66.334 E3.19131
G1 X38.062 Y66.575 E3.25332
G1 X39.242 Y67.090 E3.37034
G1 X39.852 Y67.395 E3.43237
G1 X40.972 Y68.029 E3.54939
G1 X41.547 Y68.395 E3.61141
G1 X42.535 Y69.097 E3.72160
G1 X43.131 Y69.564 E3.79045
G1 X44.098 Y70.414 E3.90747
G1 X44.586 Y70.890 E3.96949
G1 X45.460 Y71.834 E4.08652
G1 X45.897 Y72.358 E4.14854
G1 X46.670 Y73.387 E4.26556
G1 X47.051 Y73.953 E4.32758
G1 X47.713 Y75.057 E4.44460
G1 X48.034 Y75.659 E4.50663
G1 X48.579 Y76.824 E4.62365
G1 X48.836 Y77.456 E4.68567
G1 X49.259 Y78.672 E4.80270
G1 X49.450 Y79.326 E4.86471
G1 X49.745 Y80.579 E4.98174
G1 X49.868 Y81.250 E5.04376
G1 X50.033 Y82.526 E5.16079
G1 X50.085 Y83.206 E5.22280
G1 X50.119 Y84.493 E5.33983
G1 X50.101 Y85.175 E5.40185
G1 X50.002 Y86.458 E5.51888
G1 X49.914 Y87.134 E5.58090
G1 X49.697 Y88.327 E5.69109
G1 X49.527 Y89.064 E5.75993
G1 X49.167 Y90.300 E5.87696
G1 X48.943 Y90.944 E5.93897
G1 X48.458 Y92.136 E6.05600
G1 X48.169 Y92.754 E6.11802
G1 X47.564 Y93.890 E6.23505
G1 X47.213 Y94.475 E6.29707
G1 X46.494 Y95.543 E6.41409
G1 X46.085 Y96.088 E6.47611
G1 X45.261 Y97.076 E6.59313
G1 X44.797 Y97.577 E6.65516
G1 X43.876 Y98.475 E6.77219
G1 X43.363 Y98.926 E6.83420
G1 X42.354 Y99.724 E6.95122
G1 X41.798 Y100.120 E7.01325
G1 X40.712 Y100.810 E7.13027
G1 X40.119 Y101.146 E7.19229
G1 X38.968 Y101.722 E7.30931
G1 X38.343 Y101.995 E7.37133
G1 X37.138 Y102.449 E7.48836
G1 X36.489 Y102.656 E7.55038
G1 X35.244 Y102.984 E7.66741
G1 X34.576 Y103.123 E7.72943
G1 X33.305 Y103.321 E7.84645
G1 X32.626 Y103.392 E7.90847
G1 X31.416 Y103.454 E8.01867
G1 X30.659 Y103.458 E8.08751
G1 X29.374 Y103.392 E8.20454
G1 X28.695 Y103.321 E8.26655
G1 X27.424 Y103.123 E8.38357
G1 X26.756 Y102.984 E8.44560
G1 X25.511 Y102.656 E8.56262
G1 X24.862 Y102.449 E8.62465
G1 X23.657 Y101.995 E8.74167
G1 X23.032 Y101.722 E8.80369
G1 X21.881 Y101.146 E8.92071
G1 X21.288 Y100.810 E8.98273
G1 X20.202 Y100.119 E9.09976
G1 X19.646 Y99.724 E9.16178
G1 X18.637 Y98.926 E9.27881
G1 X18.124 Y98.475 E9.34082
G1 X17.203 Y97.577 E9.45785
G1 X16.739 Y97.076 E9.51987
G1 X15.963 Y96.146 E9.63007
G1 X15.505 Y95.543 E9.69891
G1 X14.787 Y94.475 E9.81593
G1 X14.436 Y93.890 E9.87795
G1 X13.831 Y92.754 E9.99497
G1 X13.542 Y92.136 E10.05699
G1 X13.057 Y90.944 E10.17402
G1 X12.833 Y90.300 E10.23604
G1 X12.473 Y89.064 E10.35307
G1 X12.317 Y88.401 E10.41508
G1 X12.086 Y87.134 E10.53212
G1 X11.998 Y86.458 E10.59413
G1 X11.905 Y85.250 E10.70433
G1 X11.881 Y84.493 E10.77317
G1 X11.915 Y83.206 E10.89020
G1 X11.967 Y82.526 E10.95221
G1 X12.132 Y81.250 E11.06924
G1 X12.255 Y80.579 E11.13126
G1 X12.550 Y79.326 E11.24828
G1 X12.741 Y78.672 E11.31030
G1 X13.164 Y77.456 E11.42733
G1 X13.421 Y76.824 E11.48935
G1 X13.966 Y75.659 E11.60637
G1 X14.287 Y75.057 E11.66839
G1 X14.911 Y74.018 E11.77859
G1 X15.330 Y73.387 E11.84743
G1 X16.103 Y72.358 E11.96445
G1 X16.540 Y71.834 E12.02647
G1 X17.414 Y70.890 E12.14350
G1 X17.902 Y70.414 E12.20552
G1 X18.869 Y69.564 E12.32254
G1 X19.404 Y69.141 E12.38457
G1 X20.453 Y68.395 E12.50160
G1 X21.028 Y68.029 E12.56360
G1 X22.148 Y67.395 E12.68063
G1 X22.758 Y67.090 E12.74266
G1 X23.938 Y66.575 E12.85968
G1 X24.520 Y66.355 E12.91624
G1 E10.91624 F2400.00000
G92 E0
G1 X36.191 Y94.574 F7800.000
G1 E2.00000 F2400.00000
G1 X35.922 Y94.598 E2.02459 F1800.000
G1 X35.653 Y94.574 E2.04918
G1 X35.406 Y94.508 E2.07239
G1 X35.148 Y94.391 E2.09817
G1 X34.925 Y94.235 E2.12293
G1 X34.734 Y94.044 E2.14752
G1 X34.579 Y93.822 E2.17211
G1 X34.464 Y93.577 E2.19669
G1 X34.394 Y93.316 E2.22128
G1 X34.371 Y93.047 E2.24587
G1 X34.394 Y92.777 E2.27046
G1 X34.464 Y92.516 E2.29505
G1 X34.579 Y92.271 E2.31964
G1 X34.734 Y92.049 E2.34423
G1 X34.925 Y91.858 E2.36882
G1 X35.146 Y91.703 E2.39340
G1 X35.391 Y91.589 E2.41799
G1 X35.653 Y91.519 E2.44258
G1 X35.907 Y91.496 E2.46579 F1800.000
G1 X36.190 Y91.518 E2.49158
G1 X36.453 Y91.589 E2.51633
G1 X36.698 Y91.703 E2.54092
G1 X36.907 Y91.849 E2.56413
G1 X37.109 Y92.048 E2.58991
G1 X37.266 Y92.271 E2.61467
G1 X37.380 Y92.516 E2.63926
G1 X37.450 Y92.777 E2.66385
G1 X37.479 Y93.108 E2.69404
G1 X37.384 Y93.568 E2.73672
G1 X37.266 Y93.822 E2.76225
G1 X37.110 Y94.044 E2.78684
G1 X36.919 Y94.235 E2.81143
G1 X36.698 Y94.390 E2.83602
G1 X36.453 Y94.504 E2.86061
G1 X36.249 Y94.559 E2.87974
G1 X36.092 Y94.826 F7800.000
G1 X23.753 Y89.794 F7800.000
G1 X23.639 Y90.039 E2.90433 F1800.000
G1 X23.475 Y90.273 E2.93025
G1 X23.291 Y90.453 E2.95371
G1 X23.071 Y90.607 E2.97812
G1 X22.826 Y90.722 E3.00271
G1 X22.565 Y90.792 E3.02729
G1 X22.295 Y90.815 E3.05188
G1 X22.026 Y90.792 E3.07647
G1 X21.765 Y90.722 E3.10106
G1 X21.520 Y90.607 E3.12565
G1 X21.298 Y90.452 E3.15024
G1 X21.107 Y90.261 E3.17483
G1 X20.952 Y90.039 E3.19942
G1 X20.837 Y89.794 E3.22400
G1 X20.767 Y89.533 E3.24859
G1 X20.744 Y89.264 E3.27318
G1 X20.767 Y88.994 E3.29777
G1 X20.837 Y88.733 E3.32236
G1 X20.952 Y88.488 E3.34695
G1 X21.107 Y88.267 E3.37154
G1 X21.298 Y88.075 E3.39613
G1 X21.520 Y87.920 E3.42071
G1 X21.765 Y87.806 E3.44530
G1 X22.026 Y87.736 E3.46989
G1 X22.280 Y87.714 E3.49313 F1800.000
G1 X22.601 Y87.739 E3.52236
G1 X22.831 Y87.808 E3.54421
G1 X23.071 Y87.920 E3.56829
G1 X23.292 Y88.075 E3.59288
G1 X23.484 Y88.267 E3.61746
G1 X23.639 Y88.488 E3.64205
G1 X23.747 Y88.719 E3.66527
G1 X23.823 Y88.993 E3.69105
G1 X23.847 Y89.264 E3.71580
G1 X23.823 Y89.533 E3.74039
G1 X23.769 Y89.736 E3.75952
G1 X23.921 Y90.006 F7800.000
G1 X25.809 Y77.165 F7800.000
G1 X25.547 Y77.095 E3.78411 F1800.000
G1 X25.302 Y76.980 E3.80870
G1 X25.081 Y76.825 E3.83329
G1 X24.890 Y76.634 E3.85788
G1 X24.734 Y76.413 E3.88247
G1 X24.620 Y76.168 E3.90706
G1 X24.550 Y75.906 E3.93165
G1 X24.527 Y75.637 E3.95623
G1 X24.550 Y75.368 E3.98082
G1 X24.620 Y75.106 E4.00541
G1 X24.734 Y74.861 E4.03000
G1 X24.898 Y74.628 E4.05592
G1 X25.082 Y74.447 E4.07938
G1 X25.302 Y74.293 E4.10379
G1 X25.547 Y74.179 E4.12838
G1 X25.809 Y74.109 E4.15296
G1 X26.063 Y74.087 E4.17618 F1800.000
G1 X26.346 Y74.109 E4.20196
G1 X26.609 Y74.179 E4.22671
G1 X26.854 Y74.293 E4.25130
G1 X27.075 Y74.449 E4.27589
G1 X27.266 Y74.640 E4.30048
G1 X27.421 Y74.861 E4.32507
G1 X27.536 Y75.106 E4.34966
G1 X27.606 Y75.368 E4.37425
G1 X27.629 Y75.637 E4.39884
G1 X27.606 Y75.906 E4.42342
G1 X27.536 Y76.168 E4.44801
G1 X27.421 Y76.413 E4.47260
G1 X27.266 Y76.634 E4.49719
G1 X27.075 Y76.825 E4.52178
G1 X26.854 Y76.980 E4.54637
G1 X26.609 Y77.095 E4.57096
G1 X26.347 Y77.165 E4.59554
G1 X26.078 Y77.188 E4.62013
G1 X25.868 Y77.170 E4.63927
G1 X25.629 Y77.367 F7800.000
G1 X27.342 Y79.301 F7800.000
G1 X28.175 Y78.791 E4.72805 F1800.000
G1 X29.077 Y78.418 E4.81684
G1 X30.026 Y78.191 E4.90555
G1 X30.984 Y78.115 E4.99297 F1800.000
G1 X31.973 Y78.190 E5.08317
G1 X32.938 Y78.424 E5.17339
G1 X33.825 Y78.792 E5.26075
G1 X34.658 Y79.301 E5.34952
G1 X35.401 Y79.935 E5.43831
G1 X36.036 Y80.678 E5.52717
G1 X36.553 Y81.523 E5.61730
G1 X36.921 Y82.411 E5.70470
G1 X37.150 Y83.360 E5.79344
G1 X37.228 Y84.334 E5.88228
G1 X37.150 Y85.323 E5.97248
G1 X36.921 Y86.273 E6.06133
G1 X36.546 Y87.174 E6.15008
G1 X36.044 Y87.993 E6.23746
G1 X35.401 Y88.748 E6.32759
G1 X34.658 Y89.382 E6.41646
G1 X33.825 Y89.892 E6.50523
G1 X32.938 Y90.260 E6.59259
G1 X31.975 Y90.493 E6.68263
G1 X31.000 Y90.570 E6.77158
G1 X30.025 Y90.493 E6.86048
G1 X29.062 Y90.260 E6.95058
G1 X28.175 Y89.892 E7.03795
G1 X27.342 Y89.382 E7.12672
G1 X26.599 Y88.748 E7.21550
G1 X25.964 Y88.006 E7.30437
G1 X25.447 Y87.160 E7.39450
G1 X25.079 Y86.272 E7.48189
G1 X24.850 Y85.324 E7.57063
G1 X24.772 Y84.350 E7.65947
G1 X24.850 Y83.361 E7.74968
G1 X25.079 Y82.411 E7.83852
G1 X25.454 Y81.509 E7.92727
G1 X25.956 Y80.690 E8.01466
G1 X26.599 Y79.936 E8.10479
G1 X27.296 Y79.340 E8.18820
G1 X27.710 Y79.809 F7800.000
G1 X28.459 Y79.350 E8.26805 F1800.000
G1 X29.271 Y79.014 E8.34790
G1 X30.124 Y78.810 E8.42768
G1 X30.985 Y78.742 E8.50624 F1800.000
G1 X31.875 Y78.809 E8.58743
G1 X32.743 Y79.020 E8.66863
G1 X33.541 Y79.350 E8.74712
G1 X34.290 Y79.809 E8.82696
G1 X34.958 Y80.378 E8.90681
G1 X35.529 Y81.046 E8.98669
G1 X35.995 Y81.808 E9.06786
G1 X36.325 Y82.605 E9.14637
G1 X36.531 Y83.459 E9.22620
G1 X36.601 Y84.334 E9.30607
G1 X36.531 Y85.224 E9.38726
G1 X36.325 Y86.078 E9.46713
G1 X35.988 Y86.889 E9.54697
G1 X35.537 Y87.625 E9.62547
G1 X34.958 Y88.305 E9.70664
G1 X34.290 Y88.875 E9.78652
G1 X33.541 Y89.333 E9.86636
G1 X32.743 Y89.664 E9.94486
G1 X31.877 Y89.874 E10.02595
G1 X31.000 Y89.943 E10.10590
G1 X30.124 Y89.874 E10.18579
G1 X29.257 Y89.664 E10.26695
G1 X28.459 Y89.333 E10.34544
G1 X27.710 Y88.875 E10.42528
G1 X27.042 Y88.305 E10.50513
G1 X26.471 Y87.637 E10.58501
G1 X26.005 Y86.876 E10.66618
G1 X25.675 Y86.078 E10.74469
G1 X25.469 Y85.225 E10.82452
G1 X25.399 Y84.349 E10.90438
G1 X25.469 Y83.459 E10.98558
G1 X25.675 Y82.605 E11.06545
G1 X26.012 Y81.794 E11.14529
G1 X26.463 Y81.058 E11.22379
G1 X27.042 Y80.379 E11.30496
G1 X27.665 Y79.848 E11.37938
G1 X27.679 Y79.410 F7800.000
G1 X27.733 Y78.298 F7800.000
G1 X27.572 Y78.003 E11.40994 F1800.000
G1 X27.882 Y77.786 E11.44432
G1 X28.227 Y77.441 E11.48880
G1 X28.508 Y77.040 E11.53327
G1 X28.715 Y76.597 E11.57775
G1 X28.841 Y76.124 E11.62222
G1 X28.884 Y75.637 E11.66669
G1 X28.841 Y75.150 E11.71116
G1 X28.715 Y74.677 E11.75564
G1 X28.508 Y74.234 E11.80011
G1 X28.208 Y73.806 E11.84758
G1 X29.323 Y73.573 E11.95111
G1 X30.439 Y73.458 E12.05313
G1 X31.561 Y73.458 E12.15516
G1 X32.565 Y73.562 E12.24691
G1 X33.782 Y73.805 E12.35980
G1 X34.844 Y74.144 E12.46119
G1 X35.872 Y74.594 E12.56321
G1 X36.849 Y75.146 E12.66524
G1 X37.763 Y75.796 E12.76727
G1 X38.606 Y76.537 E12.86929
G1 X39.368 Y77.360 E12.97132
G1 X40.042 Y78.258 E13.07335
G1 X40.620 Y79.220 E13.17537
G1 X41.095 Y80.236 E13.27740
G1 X41.464 Y81.296 E13.37943
G1 X41.722 Y82.388 E13.48145
G1 X41.866 Y83.501 E13.58348
G1 X41.894 Y84.622 E13.68551
G1 X41.808 Y85.741 E13.78753
G1 X41.607 Y86.845 E13.88956
G1 X41.293 Y87.922 E13.99159
G1 X40.870 Y88.962 E14.09361
G1 X40.343 Y89.952 E14.19564
G1 X39.717 Y90.883 E14.29767
G1 X38.998 Y91.744 E14.39969
G1 X38.586 Y92.146 E14.45197
G1 X38.352 Y91.644 E14.50236
G1 X38.067 Y91.236 E14.54760
G1 X37.708 Y90.885 E14.59326
G1 X37.325 Y90.617 E14.63577
G1 X36.882 Y90.410 E14.68024
G1 X36.401 Y90.281 E14.72547
G1 X35.900 Y90.243 E14.77114
G1 X35.435 Y90.283 E14.81365
G1 X34.962 Y90.410 E14.85811
G1 X34.506 Y90.623 E14.90394
G1 X34.338 Y90.311 E14.93615
G1 X35.026 Y89.889 E15.00950
G1 X35.845 Y89.191 E15.10736
G1 X36.552 Y88.362 E15.20645
G1 X37.105 Y87.459 E15.30272
G1 X37.517 Y86.467 E15.40038
G1 X37.769 Y85.421 E15.49820
G1 X37.855 Y84.333 E15.59742
G1 X37.769 Y83.261 E15.69523
G1 X37.517 Y82.217 E15.79288
G1 X37.112 Y81.239 E15.88916
G1 X36.543 Y80.309 E15.98826
G1 X35.844 Y79.491 E16.08611
G1 X35.026 Y78.794 E16.18383
G1 X34.110 Y78.233 E16.28152
G1 X33.132 Y77.828 E16.37776
G1 X32.071 Y77.571 E16.47700
G1 X30.983 Y77.488 E16.57621
G1 X29.928 Y77.571 E16.67249
G1 X28.884 Y77.822 E16.77013
G1 X27.789 Y78.275 E16.87786
G1 X27.662 Y78.373 F7800.000
G1 X26.974 Y78.794 E16.95121 F1800.000
G1 X26.155 Y79.492 E17.04907
G1 X25.448 Y80.322 E17.14816
G1 X24.895 Y81.225 E17.24443
G1 X24.483 Y82.216 E17.34209
G1 X24.231 Y83.262 E17.43991
G1 X24.145 Y84.350 E17.53913
G1 X24.231 Y85.422 E17.63694
G1 X24.483 Y86.466 E17.73459
G1 X24.956 Y87.608 E17.84696
G1 X24.661 Y87.770 E17.87752
G1 X24.445 Y87.460 E17.91187
G1 X24.099 Y87.114 E17.95634
G1 X23.698 Y86.834 E18.00081
G1 X23.278 Y86.638 E18.04296
G1 X22.833 Y86.503 E18.08522
G1 X22.275 Y86.460 E18.13616
G1 X21.808 Y86.500 E18.17876
G1 X21.336 Y86.627 E18.22324
G1 X20.892 Y86.834 E18.26771
G1 X20.475 Y87.126 E18.31402
G1 X20.393 Y86.845 E18.34063
G1 X20.192 Y85.741 E18.44266
G1 X20.106 Y84.622 E18.54469
G1 X20.134 Y83.501 E18.64671
G1 X20.278 Y82.388 E18.74874
G1 X20.536 Y81.296 E18.85077
G1 X20.905 Y80.236 E18.95279
G1 X21.380 Y79.220 E19.05482
G1 X21.958 Y78.258 E19.15685
G1 X22.632 Y77.360 E19.25887
G1 X23.407 Y76.523 E19.36266
G1 X23.648 Y77.040 E19.41454
G1 X23.929 Y77.441 E19.45901
G1 X24.274 Y77.786 E19.50348
G1 X24.675 Y78.067 E19.54796
G1 X25.118 Y78.274 E19.59243
G1 X25.591 Y78.400 E19.63690
G1 X26.078 Y78.443 E19.68138
G1 X26.565 Y78.400 E19.72585
G1 X27.038 Y78.274 E19.77033
G1 X27.494 Y78.061 E19.81615
G1 X27.634 Y78.320 E19.84291
G1 E17.84291 F2400.00000
G92 E0
G1 X25.028 Y87.673 F7800.000
G1 E2.00000 F2400.00000
G1 X25.457 Y88.374 E2.07475 F1800.000
G1 X26.156 Y89.192 E2.17260
G1 X26.974 Y89.889 E2.27032
G1 X27.890 Y90.450 E2.36802
G1 X28.868 Y90.855 E2.46425
G1 X29.927 Y91.112 E2.56330
G1 X31.000 Y91.196 E2.66121
G1 X32.074 Y91.112 E2.75917
G1 X33.132 Y90.855 E2.85814
G1 X34.267 Y90.385 E2.96983
G1 X34.428 Y90.680 E3.00039
G1 X34.118 Y90.897 E3.03480
G1 X33.773 Y91.243 E3.07927
G1 X33.492 Y91.644 E3.12374
G1 X33.285 Y92.087 E3.16821
G1 X33.159 Y92.559 E3.21269
G1 X33.116 Y93.046 E3.25716
G1 X33.159 Y93.534 E3.30164
G1 X33.285 Y94.006 E3.34611
G1 X33.492 Y94.449 E3.39058
G1 X33.782 Y94.864 E3.43657
G1 X33.229 Y95.009 E3.48857
G1 X32.121 Y95.182 E3.59059
G1 X31.000 Y95.240 E3.69262
G1 X29.879 Y95.182 E3.79465
G1 X28.771 Y95.009 E3.89667
G1 X27.686 Y94.724 E3.99870
G1 X26.636 Y94.328 E4.10073
G1 X25.632 Y93.826 E4.20275
G1 X24.685 Y93.224 E4.30478
G1 X23.806 Y92.528 E4.40681
G1 X23.192 Y91.930 E4.48470
G1 X23.698 Y91.694 E4.53548
G1 X24.091 Y91.418 E4.57913
G1 X24.432 Y91.085 E4.62247
G1 X24.725 Y90.667 E4.66892
G1 X24.932 Y90.223 E4.71339
G1 X25.058 Y89.751 E4.75786
G1 X25.101 Y89.264 E4.80234
G1 X25.058 Y88.768 E4.84757
G1 X24.923 Y88.284 E4.89324
G1 X24.716 Y87.840 E4.93778
G1 X24.975 Y87.701 E4.96455
G1 E2.96455 F2400.00000
G92 E0
G1 X20.211 Y88.456 F7800.000
G1 E2.00000 F2400.00000
G1 X19.784 Y86.989 E2.13896 F1800.000
G1 X19.572 Y85.821 E2.24685
G1 X19.480 Y84.638 E2.35473
G1 X19.511 Y83.452 E2.46261
G1 X19.663 Y82.276 E2.57050
G1 X19.935 Y81.121 E2.67838
G1 X20.325 Y80.000 E2.78627
G1 X20.828 Y78.926 E2.89415
G1 X21.439 Y77.909 E3.00204
G1 X22.151 Y76.960 E3.10992
G1 X22.957 Y76.089 E3.21781
G1 X23.869 Y75.288 E3.32818
G1 X23.932 Y76.015 E3.39460
G1 X24.031 Y76.382 E3.42913
G1 X24.191 Y76.726 E3.46366
G1 X24.409 Y77.037 E3.49819
G1 X24.678 Y77.306 E3.53272
G1 X24.989 Y77.524 E3.56725
G1 X25.333 Y77.684 E3.60178
G1 X25.700 Y77.782 E3.63632
G1 X26.078 Y77.816 E3.67085
G1 X26.456 Y77.782 E3.70538
G1 X26.823 Y77.684 E3.73991
G1 X27.167 Y77.524 E3.77444
G1 X27.478 Y77.306 E3.80897
G1 X27.747 Y77.037 E3.84350
G1 X27.965 Y76.726 E3.87803
G1 X28.125 Y76.382 E3.91257
G1 X28.223 Y76.015 E3.94710
G1 X28.257 Y75.637 E3.98163
G1 X28.223 Y75.259 E4.01616
G1 X28.125 Y74.892 E4.05069
G1 X27.965 Y74.548 E4.08522
G1 X27.747 Y74.237 E4.11975
G1 X27.478 Y73.968 E4.15428
G1 X26.907 Y73.568 E4.21774
G1 X28.065 Y73.198 E4.32833
G1 X29.227 Y72.955 E4.43621
G1 X30.407 Y72.833 E4.54410
G1 X31.593 Y72.833 E4.65198
G1 X32.658 Y72.943 E4.74934
G1 X33.939 Y73.199 E4.86809
G1 X35.065 Y73.559 E4.97558
G1 X36.152 Y74.034 E5.08346
G1 X37.185 Y74.618 E5.19135
G1 X38.152 Y75.306 E5.29923
G1 X39.043 Y76.089 E5.40712
G1 X39.849 Y76.960 E5.51500
G1 X40.561 Y77.909 E5.62289
G1 X41.172 Y78.926 E5.73077
G1 X41.675 Y80.000 E5.83866
G1 X42.065 Y81.121 E5.94654
